res/luts/Apocalypsecube.cube
LUT_3D_SIZE 6
0.000000 0.000000 0.000000
0.217909 0.000000 0.000000
0.514494 0.000000 0.000000
0.843930 0.000000 0.000000
0.949381 0.000000 0.000000
1.000038 0.000000 0.000000
0.000000 0.155769 0.000000
0.217909 0.155769 0.000000
0.514494 0.155769 0.000000
0.843930 0.155769 0.000000
0.949381 0.155769 0.000000
1.000038 0.155769 0.000000
0.000000 0.282315 0.000000
0.217909 0.282315 0.000000
0.514494 0.282315 0.000000
0.843930 0.282315 0.000000
0.949381 0.282315 0.000000
1.000038 0.282315 0.000000
0.000000 0.376263 0.000000
0.217909 0.376263 0.000000
0.514494 0.376263 0.000000
0.843930 0.376263 0.000000
0.949381 0.376263 0.000000
1.000038 0.376263 0.000000
0.000000 0.428648 0.000000
0.217909 0.428648 0.000000
0.514494 0.428648 0.000000
0.843930 0.428648 0.000000
0.949381 0.428648 0.000000
1.000038 0.428648 0.000000
0.000000 0.996350 0.000000
0.217909 0.996350 0.000000
0.514494 0.996350 0.000000
0.843930 0.996350 0.000000
0.949381 0.996350 0.000000
1.000038 0.996350 0.000000
0.000000 0.000000 0.385018
0.217909 0.000000 0.385018
0.514494 0.000000 0.385018
0.843930 0.000000 0.385018
0.949381 0.000000 0.385018
1.000038 0.000000 0.385018
0.000000 0.155769 0.385018
0.217909 0.155769 0.385018
0.514494 0.155769 0.385018
0.843930 0.155769 0.385018
0.949381 0.155769 0.385018
1.000038 0.155769 0.385018
0.000000 0.282315 0.385018
0.217909 0.282315 0.385018
0.514494 0.282315 0.385018
0.843930 0.282315 0.385018
0.949381 0.282315 0.385018
1.000038 0.282315 0.385018
0.000000 0.376263 0.385018
0.217909 0.376263 0.385018
0.514494 0.376263 0.385018
0.843930 0.376263 0.385018
0.949381 0.376263 0.385018
1.000038 0.376263 0.385018
0.000000 0.428648 0.385018
0.217909 0.428648 0.385018
0.514494 0.428648 0.385018
0.843930 0.428648 0.385018
0.949381 0.428648 0.385018
1.000038 0.428648 0.385018
0.000000 0.996350 0.385018
0.217909 0.996350 0.385018
0.514494 0.996350 0.385018
0.843930 0.996350 0.385018
0.949381 0.996350 0.385018
1.000038 0.996350 0.385018
0.000000 0.000000 0.681172
0.217909 0.000000 0.681172
0.514494 0.000000 0.681172
0.843930 0.000000 0.681172
0.949381 0.000000 0.681172
1.000038 0.000000 0.681172
0.000000 0.155769 0.681172
0.217909 0.155769 0.681172
0.514494 0.155769 0.681172
0.843930 0.155769 0.681172
0.949381 0.155769 0.681172
1.000038 0.155769 0.681172
0.000000 0.282315 0.681172
0.217909 0.282315 0.681172
0.514494 0.282315 0.681172
0.843930 0.282315 0.681172
0.949381 0.282315 0.681172
1.000038 0.282315 0.681172
0.000000 0.376263 0.681172
0.217909 0.376263 0.681172
0.514494 0.376263 0.681172
0.843930 0.376263 0.681172
0.949381 0.376263 0.681172
1.000038 0.376263 0.681172
0.000000 0.428648 0.681172
0.217909 0.428648 0.681172
0.514494 0.428648 0.681172
0.843930 0.428648 0.681172
0.949381 0.428648 0.681172
1.000038 0.428648 0.681172
0.000000 0.996350 0.681172
0.217909 0.996350 0.681172
0.514494 0.996350 0.681172
0.843930 0.996350 0.681172
0.949381 0.996350 0.681172
1.000038 0.996350 0.681172
0.000000 0.000000 0.863301
0.217909 0.000000 0.863301
0.514494 0.000000 0.863301
0.843930 0.000000 0.863301
0.949381 0.000000 0.863301
1.000038 0.000000 0.863301
0.000000 0.155769 0.863301
0.217909 0.155769 0.863301
0.514494 0.155769 0.863301
0.843930 0.155769 0.863301
0.949381 0.155769 0.863301
1.000038 0.155769 0.863301
0.000000 0.282315 0.863301
0.217909 0.282315 0.863301
0.514494 0.282315 0.863301
0.843930 0.282315 0.863301
0.949381 0.282315 0.863301
1.000038 0.282315 0.863301
0.000000 0.376263 0.863301
0.217909 0.376263 0.863301
0.514494 0.376263 0.863301
0.843930 0.376263 0.863301
0.949381 0.376263 0.863301
1.000038 0.376263 0.863301
0.000000 0.428648 0.863301
0.217909 0.428648 0.863301
0.514494 0.428648 0.863301
0.843930 0.428648 0.863301
0.949381 0.428648 0.863301
1.000038 0.428648 0.863301
0.000000 0.996350 0.863301
0.217909 0.996350 0.863301
0.514494 0.996350 0.863301
0.843930 0.996350 0.863301
0.949381 0.996350 0.863301
1.000038 0.996350 0.863301
0.000000 0.000000 0.855760
0.217909 0.000000 0.855760
0.514494 0.000000 0.855760
0.843930 0.000000 0.855760
0.949381 0.000000 0.855760
1.000038 0.000000 0.855760
0.000000 0.155769 0.855760
0.217909 0.155769 0.855760
0.514494 0.155769 0.855760
0.843930 0.155769 0.855760
0.949381 0.155769 0.855760
1.000038 0.155769 0.855760
0.000000 0.282315 0.855760
0.217909 0.282315 0.855760
0.514494 0.282315 0.855760
0.843930 0.282315 0.855760
0.949381 0.282315 0.855760
1.000038 0.282315 0.855760
0.000000 0.376263 0.855760
0.217909 0.376263 0.855760
0.514494 0.376263 0.855760
0.843930 0.376263 0.855760
0.949381 0.376263 0.855760
1.000038 0.376263 0.855760
0.000000 0.428648 0.855760
0.217909 0.428648 0.855760
0.514494 0.428648 0.855760
0.843930 0.428648 0.855760
0.949381 0.428648 0.855760
1.000038 0.428648 0.855760
0.000000 0.996350 0.855760
0.217909 0.996350 0.855760
0.514494 0.996350 0.855760
0.843930 0.996350 0.855760
0.949381 0.996350 0.855760
1.000038 0.996350 0.855760
0.000000 0.000000 0.998531
0.217909 0.000000 0.998531
0.514494 0.000000 0.998531
0.843930 0.000000 0.998531
0.949381 0.000000 0.998531
1.000038 0.000000 0.998531
0.000000 0.155769 0.998531
0.217909 0.155769 0.998531
0.514494 0.155769 0.998531
0.843930 0.155769 0.998531
0.949381 0.155769 0.998531
1.000038 0.155769 0.998531
0.000000 0.282315 0.998531
0.217909 0.282315 0.998531
0.514494 0.282315 0.998531
0.843930 0.282315 0.998531
0.949381 0.282315 0.998531
1.000038 0.282315 0.998531
0.000000 0.376263 0.998531
0.217909 0.376263 0.998531
0.514494 0.376263 0.998531
0.843930 0.376263 0.998531
0.949381 0.376263 0.998531
1.000038 0.376263 0.998531
0.000000 0.428648 0.998531
0.217909 0.428648 0.998531
0.514494 0.428648 0.998531
0.843930 0.428648 0.998531
0.949381 0.428648 0.998531
1.000038 0.428648 0.998531
0.000000 0.996350 0.998531
0.217909 0.996350 0.998531
0.514494 0.996350 0.998531
0.843930 0.996350 0.998531
0.949381 0.996350 0.998531
1.000038 0.996350 0.998531
