res/luts/Apocalypsecube.cube
LUT_3D_SIZE 16
0.000000 0.000000 0.000000
0.061622 0.000000 0.000000
0.134883 0.000000 0.000000
0.217909 0.000000 0.000000
0.309397 0.000000 0.000000
0.408478 0.000000 0.000000
0.514494 0.000000 0.000000
0.626953 0.000000 0.000000
0.745619 0.000000 0.000000
0.843930 0.000000 0.000000
0.887015 0.000000 0.000000
0.920595 0.000000 0.000000
0.949381 0.000000 0.000000
0.973333 0.000000 0.000000
0.991134 0.000000 0.000000
1.000038 0.000000 0.000000
0.000000 0.054751 0.000000
0.061622 0.054751 0.000000
0.134883 0.054751 0.000000
0.217909 0.054751 0.000000
0.309397 0.054751 0.000000
0.408478 0.054751 0.000000
0.514494 0.054751 0.000000
0.626953 0.054751 0.000000
0.745619 0.054751 0.000000
0.843930 0.054751 0.000000
0.887015 0.054751 0.000000
0.920595 0.054751 0.000000
0.949381 0.054751 0.000000
0.973333 0.054751 0.000000
0.991134 0.054751 0.000000
1.000038 0.054751 0.000000
0.000000 0.106726 0.000000
0.061622 0.106726 0.000000
0.134883 0.106726 0.000000
0.217909 0.106726 0.000000
0.309397 0.106726 0.000000
0.408478 0.106726 0.000000
0.514494 0.106726 0.000000
0.626953 0.106726 0.000000
0.745619 0.106726 0.000000
0.843930 0.106726 0.000000
0.887015 0.106726 0.000000
0.920595 0.106726 0.000000
0.949381 0.106726 0.000000
0.973333 0.106726 0.000000
0.991134 0.106726 0.000000
1.000038 0.106726 0.000000
0.000000 0.155769 0.000000
0.061622 0.155769 0.000000
0.134883 0.155769 0.000000
0.217909 0.155769 0.000000
0.309397 0.155769 0.000000
0.408478 0.155769 0.000000
0.514494 0.155769 0.000000
0.626953 0.155769 0.000000
0.745619 0.155769 0.000000
0.843930 0.155769 0.000000
0.887015 0.155769 0.000000
0.920595 0.155769 0.000000
0.949381 0.155769 0.000000
0.973333 0.155769 0.000000
0.991134 0.155769 0.000000
1.000038 0.155769 0.000000
0.000000 0.201537 0.000000
0.061622 0.201537 0.000000
0.134883 0.201537 0.000000
0.217909 0.201537 0.000000
0.309397 0.201537 0.000000
0.408478 0.201537 0.000000
0.514494 0.201537 0.000000
0.626953 0.201537 0.000000
0.745619 0.201537 0.000000
0.843930 0.201537 0.000000
0.887015 0.201537 0.000000
0.920595 0.201537 0.000000
0.949381 0.201537 0.000000
0.973333 0.201537 0.000000
0.991134 0.201537 0.000000
1.000038 0.201537 0.000000
0.000000 0.243787 0.000000
0.061622 0.243787 0.000000
0.134883 0.243787 0.000000
0.217909 0.243787 0.000000
0.309397 0.243787 0.000000
0.408478 0.243787 0.000000
0.514494 0.243787 0.000000
0.626953 0.243787 0.000000
0.745619 0.243787 0.000000
0.843930 0.243787 0.000000
0.887015 0.243787 0.000000
0.920595 0.243787 0.000000
0.949381 0.243787 0.000000
0.973333 0.243787 0.000000
0.991134 0.243787 0.000000
1.000038 0.243787 0.000000
0.000000 0.282315 0.000000
0.061622 0.282315 0.000000
0.134883 0.282315 0.000000
0.217909 0.282315 0.000000
0.309397 0.282315 0.000000
0.408478 0.282315 0.000000
0.514494 0.282315 0.000000
0.626953 0.282315 0.000000
0.745619 0.282315 0.000000
0.843930 0.282315 0.000000
0.887015 0.282315 0.000000
0.920595 0.282315 0.000000
0.949381 0.282315 0.000000
0.973333 0.282315 0.000000
0.991134 0.282315 0.000000
1.000038 0.282315 0.000000
0.000000 0.317297 0.000000
0.061622 0.317297 0.000000
0.134883 0.317297 0.000000
0.217909 0.317297 0.000000
0.309397 0.317297 0.000000
0.408478 0.317297 0.000000
0.514494 0.317297 0.000000
0.626953 0.317297 0.000000
0.745619 0.317297 0.000000
0.843930 0.317297 0.000000
0.887015 0.317297 0.000000
0.920595 0.317297 0.000000
0.949381 0.317297 0.000000
0.973333 0.317297 0.000000
0.991134 0.317297 0.000000
1.000038 0.317297 0.000000
0.000000 0.348772 0.000000
0.061622 0.348772 0.000000
0.134883 0.348772 0.000000
0.217909 0.348772 0.000000
0.309397 0.348772 0.000000
0.408478 0.348772 0.000000
0.514494 0.348772 0.000000
0.626953 0.348772 0.000000
0.745619 0.348772 0.000000
0.843930 0.348772 0.000000
0.887015 0.348772 0.000000
0.920595 0.348772 0.000000
0.949381 0.348772 0.000000
0.973333 0.348772 0.000000
0.991134 0.348772 0.000000
1.000038 0.348772 0.000000
0.000000 0.376263 0.000000
0.061622 0.376263 0.000000
0.134883 0.376263 0.000000
0.217909 0.376263 0.000000
0.309397 0.376263 0.000000
0.408478 0.376263 0.000000
0.514494 0.376263 0.000000
0.626953 0.376263 0.000000
0.745619 0.376263 0.000000
0.843930 0.376263 0.000000
0.887015 0.376263 0.000000
0.920595 0.376263 0.000000
0.949381 0.376263 0.000000
0.973333 0.376263 0.000000
0.991134 0.376263 0.000000
1.000038 0.376263 0.000000
0.000000 0.399334 0.000000
0.061622 0.399334 0.000000
0.134883 0.399334 0.000000
0.217909 0.399334 0.000000
0.309397 0.399334 0.000000
0.408478 0.399334 0.000000
0.514494 0.399334 0.000000
0.626953 0.399334 0.000000
0.745619 0.399334 0.000000
0.843930 0.399334 0.000000
0.887015 0.399334 0.000000
0.920595 0.399334 0.000000
0.949381 0.399334 0.000000
0.973333 0.399334 0.000000
0.991134 0.399334 0.000000
1.000038 0.399334 0.000000
0.000000 0.417184 0.000000
0.061622 0.417184 0.000000
0.134883 0.417184 0.000000
0.217909 0.417184 0.000000
0.309397 0.417184 0.000000
0.408478 0.417184 0.000000
0.514494 0.417184 0.000000
0.626953 0.417184 0.000000
0.745619 0.417184 0.000000
0.843930 0.417184 0.000000
0.887015 0.417184 0.000000
0.920595 0.417184 0.000000
0.949381 0.417184 0.000000
0.973333 0.417184 0.000000
0.991134 0.417184 0.000000
1.000038 0.417184 0.000000
0.000000 0.428648 0.000000
0.061622 0.428648 0.000000
0.134883 0.428648 0.000000
0.217909 0.428648 0.000000
0.309397 0.428648 0.000000
0.408478 0.428648 0.000000
0.514494 0.428648 0.000000
0.626953 0.428648 0.000000
0.745619 0.428648 0.000000
0.843930 0.428648 0.000000
0.887015 0.428648 0.000000
0.920595 0.428648 0.000000
0.949381 0.428648 0.000000
0.973333 0.428648 0.000000
0.991134 0.428648 0.000000
1.000038 0.428648 0.000000
0.000000 0.431528 0.000000
0.061622 0.431528 0.000000
0.134883 0.431528 0.000000
0.217909 0.431528 0.000000
0.309397 0.431528 0.000000
0.408478 0.431528 0.000000
0.514494 0.431528 0.000000
0.626953 0.431528 0.000000
0.745619 0.431528 0.000000
0.843930 0.431528 0.000000
0.887015 0.431528 0.000000
0.920595 0.431528 0.000000
0.949381 0.431528 0.000000
0.973333 0.431528 0.000000
0.991134 0.431528 0.000000
1.000038 0.431528 0.000000
0.000000 0.421540 0.000000
0.061622 0.421540 0.000000
0.134883 0.421540 0.000000
0.217909 0.421540 0.000000
0.309397 0.421540 0.000000
0.408478 0.421540 0.000000
0.514494 0.421540 0.000000
0.626953 0.421540 0.000000
0.745619 0.421540 0.000000
0.843930 0.421540 0.000000
0.887015 0.421540 0.000000
0.920595 0.421540 0.000000
0.949381 0.421540 0.000000
0.973333 0.421540 0.000000
0.991134 0.421540 0.000000
1.000038 0.421540 0.000000
0.000000 0.996350 0.000000
0.061622 0.996350 0.000000
0.134883 0.996350 0.000000
0.217909 0.996350 0.000000
0.309397 0.996350 0.000000
0.408478 0.996350 0.000000
0.514494 0.996350 0.000000
0.626953 0.996350 0.000000
0.745619 0.996350 0.000000
0.843930 0.996350 0.000000
0.887015 0.996350 0.000000
0.920595 0.996350 0.000000
0.949381 0.996350 0.000000
0.973333 0.996350 0.000000
0.991134 0.996350 0.000000
1.000038 0.996350 0.000000
0.000000 0.000000 0.133170
0.061622 0.000000 0.133170
0.134883 0.000000 0.133170
0.217909 0.000000 0.133170
0.309397 0.000000 0.133170
0.408478 0.000000 0.133170
0.514494 0.000000 0.133170
0.626953 0.000000 0.133170
0.745619 0.000000 0.133170
0.843930 0.000000 0.133170
0.887015 0.000000 0.133170
0.920595 0.000000 0.133170
0.949381 0.000000 0.133170
0.973333 0.000000 0.133170
0.991134 0.000000 0.133170
1.000038 0.000000 0.133170
0.000000 0.054751 0.133170
0.061622 0.054751 0.133170
0.134883 0.054751 0.133170
0.217909 0.054751 0.133170
0.309397 0.054751 0.133170
0.408478 0.054751 0.133170
0.514494 0.054751 0.133170
0.626953 0.054751 0.133170
0.745619 0.054751 0.133170
0.843930 0.054751 0.133170
0.887015 0.054751 0.133170
0.920595 0.054751 0.133170
0.949381 0.054751 0.133170
0.973333 0.054751 0.133170
0.991134 0.054751 0.133170
1.000038 0.054751 0.133170
0.000000 0.106726 0.133170
0.061622 0.106726 0.133170
0.134883 0.106726 0.133170
0.217909 0.106726 0.133170
0.309397 0.106726 0.133170
0.408478 0.106726 0.133170
0.514494 0.106726 0.133170
0.626953 0.106726 0.133170
0.745619 0.106726 0.133170
0.843930 0.106726 0.133170
0.887015 0.106726 0.133170
0.920595 0.106726 0.133170
0.949381 0.106726 0.133170
0.973333 0.106726 0.133170
0.991134 0.106726 0.133170
1.000038 0.106726 0.133170
0.000000 0.155769 0.133170
0.061622 0.155769 0.133170
0.134883 0.155769 0.133170
0.217909 0.155769 0.133170
0.309397 0.155769 0.133170
0.408478 0.155769 0.133170
0.514494 0.155769 0.133170
0.626953 0.155769 0.133170
0.745619 0.155769 0.133170
0.843930 0.155769 0.133170
0.887015 0.155769 0.133170
0.920595 0.155769 0.133170
0.949381 0.155769 0.133170
0.973333 0.155769 0.133170
0.991134 0.155769 0.133170
1.000038 0.155769 0.133170
0.000000 0.201537 0.133170
0.061622 0.201537 0.133170
0.134883 0.201537 0.133170
0.217909 0.201537 0.133170
0.309397 0.201537 0.133170
0.408478 0.201537 0.133170
0.514494 0.201537 0.133170
0.626953 0.201537 0.133170
0.745619 0.201537 0.133170
0.843930 0.201537 0.133170
0.887015 0.201537 0.133170
0.920595 0.201537 0.133170
0.949381 0.201537 0.133170
0.973333 0.201537 0.133170
0.991134 0.201537 0.133170
1.000038 0.201537 0.133170
0.000000 0.243787 0.133170
0.061622 0.243787 0.133170
0.134883 0.243787 0.133170
0.217909 0.243787 0.133170
0.309397 0.243787 0.133170
0.408478 0.243787 0.133170
0.514494 0.243787 0.133170
0.626953 0.243787 0.133170
0.745619 0.243787 0.133170
0.843930 0.243787 0.133170
0.887015 0.243787 0.133170
0.920595 0.243787 0.133170
0.949381 0.243787 0.133170
0.973333 0.243787 0.133170
0.991134 0.243787 0.133170
1.000038 0.243787 0.133170
0.000000 0.282315 0.133170
0.061622 0.282315 0.133170
0.134883 0.282315 0.133170
0.217909 0.282315 0.133170
0.309397 0.282315 0.133170
0.408478 0.282315 0.133170
0.514494 0.282315 0.133170
0.626953 0.282315 0.133170
0.745619 0.282315 0.133170
0.843930 0.282315 0.133170
0.887015 0.282315 0.133170
0.920595 0.282315 0.133170
0.949381 0.282315 0.133170
0.973333 0.282315 0.133170
0.991134 0.282315 0.133170
1.000038 0.282315 0.133170
0.000000 0.317297 0.133170
0.061622 0.317297 0.133170
0.134883 0.317297 0.133170
0.217909 0.317297 0.133170
0.309397 0.317297 0.133170
0.408478 0.317297 0.133170
0.514494 0.317297 0.133170
0.626953 0.317297 0.133170
0.745619 0.317297 0.133170
0.843930 0.317297 0.133170
0.887015 0.317297 0.133170
0.920595 0.317297 0.133170
0.949381 0.317297 0.133170
0.973333 0.317297 0.133170
0.991134 0.317297 0.133170
1.000038 0.317297 0.133170
0.000000 0.348772 0.133170
0.061622 0.348772 0.133170
0.134883 0.348772 0.133170
0.217909 0.348772 0.133170
0.309397 0.348772 0.133170
0.408478 0.348772 0.133170
0.514494 0.348772 0.133170
0.626953 0.348772 0.133170
0.745619 0.348772 0.133170
0.843930 0.348772 0.133170
0.887015 0.348772 0.133170
0.920595 0.348772 0.133170
0.949381 0.348772 0.133170
0.973333 0.348772 0.133170
0.991134 0.348772 0.133170
1.000038 0.348772 0.133170
0.000000 0.376263 0.133170
0.061622 0.376263 0.133170
0.134883 0.376263 0.133170
0.217909 0.376263 0.133170
0.309397 0.376263 0.133170
0.408478 0.376263 0.133170
0.514494 0.376263 0.133170
0.626953 0.376263 0.133170
0.745619 0.376263 0.133170
0.843930 0.376263 0.133170
0.887015 0.376263 0.133170
0.920595 0.376263 0.133170
0.949381 0.376263 0.133170
0.973333 0.376263 0.133170
0.991134 0.376263 0.133170
1.000038 0.376263 0.133170
0.000000 0.399334 0.133170
0.061622 0.399334 0.133170
0.134883 0.399334 0.133170
0.217909 0.399334 0.133170
0.309397 0.399334 0.133170
0.408478 0.399334 0.133170
0.514494 0.399334 0.133170
0.626953 0.399334 0.133170
0.745619 0.399334 0.133170
0.843930 0.399334 0.133170
0.887015 0.399334 0.133170
0.920595 0.399334 0.133170
0.949381 0.399334 0.133170
0.973333 0.399334 0.133170
0.991134 0.399334 0.133170
1.000038 0.399334 0.133170
0.000000 0.417184 0.133170
0.061622 0.417184 0.133170
0.134883 0.417184 0.133170
0.217909 0.417184 0.133170
0.309397 0.417184 0.133170
0.408478 0.417184 0.133170
0.514494 0.417184 0.133170
0.626953 0.417184 0.133170
0.745619 0.417184 0.133170
0.843930 0.417184 0.133170
0.887015 0.417184 0.133170
0.920595 0.417184 0.133170
0.949381 0.417184 0.133170
0.973333 0.417184 0.133170
0.991134 0.417184 0.133170
1.000038 0.417184 0.133170
0.000000 0.428648 0.133170
0.061622 0.428648 0.133170
0.134883 0.428648 0.133170
0.217909 0.428648 0.133170
0.309397 0.428648 0.133170
0.408478 0.428648 0.133170
0.514494 0.428648 0.133170
0.626953 0.428648 0.133170
0.745619 0.428648 0.133170
0.843930 0.428648 0.133170
0.887015 0.428648 0.133170
0.920595 0.428648 0.133170
0.949381 0.428648 0.133170
0.973333 0.428648 0.133170
0.991134 0.428648 0.133170
1.000038 0.428648 0.133170
0.000000 0.431528 0.133170
0.061622 0.431528 0.133170
0.134883 0.431528 0.133170
0.217909 0.431528 0.133170
0.309397 0.431528 0.133170
0.408478 0.431528 0.133170
0.514494 0.431528 0.133170
0.626953 0.431528 0.133170
0.745619 0.431528 0.133170
0.843930 0.431528 0.133170
0.887015 0.431528 0.133170
0.920595 0.431528 0.133170
0.949381 0.431528 0.133170
0.973333 0.431528 0.133170
0.991134 0.431528 0.133170
1.000038 0.431528 0.133170
0.000000 0.421540 0.133170
0.061622 0.421540 0.133170
0.134883 0.421540 0.133170
0.217909 0.421540 0.133170
0.309397 0.421540 0.133170
0.408478 0.421540 0.133170
0.514494 0.421540 0.133170
0.626953 0.421540 0.133170
0.745619 0.421540 0.133170
0.843930 0.421540 0.133170
0.887015 0.421540 0.133170
0.920595 0.421540 0.133170
0.949381 0.421540 0.133170
0.973333 0.421540 0.133170
0.991134 0.421540 0.133170
1.000038 0.421540 0.133170
0.000000 0.996350 0.133170
0.061622 0.996350 0.133170
0.134883 0.996350 0.133170
0.217909 0.996350 0.133170
0.309397 0.996350 0.133170
0.408478 0.996350 0.133170
0.514494 0.996350 0.133170
0.626953 0.996350 0.133170
0.745619 0.996350 0.133170
0.843930 0.996350 0.133170
0.887015 0.996350 0.133170
0.920595 0.996350 0.133170
0.949381 0.996350 0.133170
0.973333 0.996350 0.133170
0.991134 0.996350 0.133170
1.000038 0.996350 0.133170
0.000000 0.000000 0.261612
0.061622 0.000000 0.261612
0.134883 0.000000 0.261612
0.217909 0.000000 0.261612
0.309397 0.000000 0.261612
0.408478 0.000000 0.261612
0.514494 0.000000 0.261612
0.626953 0.000000 0.261612
0.745619 0.000000 0.261612
0.843930 0.000000 0.261612
0.887015 0.000000 0.261612
0.920595 0.000000 0.261612
0.949381 0.000000 0.261612
0.973333 0.000000 0.261612
0.991134 0.000000 0.261612
1.000038 0.000000 0.261612
0.000000 0.054751 0.261612
0.061622 0.054751 0.261612
0.134883 0.054751 0.261612
0.217909 0.054751 0.261612
0.309397 0.054751 0.261612
0.408478 0.054751 0.261612
0.514494 0.054751 0.261612
0.626953 0.054751 0.261612
0.745619 0.054751 0.261612
0.843930 0.054751 0.261612
0.887015 0.054751 0.261612
0.920595 0.054751 0.261612
0.949381 0.054751 0.261612
0.973333 0.054751 0.261612
0.991134 0.054751 0.261612
1.000038 0.054751 0.261612
0.000000 0.106726 0.261612
0.061622 0.106726 0.261612
0.134883 0.106726 0.261612
0.217909 0.106726 0.261612
0.309397 0.106726 0.261612
0.408478 0.106726 0.261612
0.514494 0.106726 0.261612
0.626953 0.106726 0.261612
0.745619 0.106726 0.261612
0.843930 0.106726 0.261612
0.887015 0.106726 0.261612
0.920595 0.106726 0.261612
0.949381 0.106726 0.261612
0.973333 0.106726 0.261612
0.991134 0.106726 0.261612
1.000038 0.106726 0.261612
0.000000 0.155769 0.261612
0.061622 0.155769 0.261612
0.134883 0.155769 0.261612
0.217909 0.155769 0.261612
0.309397 0.155769 0.261612
0.408478 0.155769 0.261612
0.514494 0.155769 0.261612
0.626953 0.155769 0.261612
0.745619 0.155769 0.261612
0.843930 0.155769 0.261612
0.887015 0.155769 0.261612
0.920595 0.155769 0.261612
0.949381 0.155769 0.261612
0.973333 0.155769 0.261612
0.991134 0.155769 0.261612
1.000038 0.155769 0.261612
0.000000 0.201537 0.261612
0.061622 0.201537 0.261612
0.134883 0.201537 0.261612
0.217909 0.201537 0.261612
0.309397 0.201537 0.261612
0.408478 0.201537 0.261612
0.514494 0.201537 0.261612
0.626953 0.201537 0.261612
0.745619 0.201537 0.261612
0.843930 0.201537 0.261612
0.887015 0.201537 0.261612
0.920595 0.201537 0.261612
0.949381 0.201537 0.261612
0.973333 0.201537 0.261612
0.991134 0.201537 0.261612
1.000038 0.201537 0.261612
0.000000 0.243787 0.261612
0.061622 0.243787 0.261612
0.134883 0.243787 0.261612
0.217909 0.243787 0.261612
0.309397 0.243787 0.261612
0.408478 0.243787 0.261612
0.514494 0.243787 0.261612
0.626953 0.243787 0.261612
0.745619 0.243787 0.261612
0.843930 0.243787 0.261612
0.887015 0.243787 0.261612
0.920595 0.243787 0.261612
0.949381 0.243787 0.261612
0.973333 0.243787 0.261612
0.991134 0.243787 0.261612
1.000038 0.243787 0.261612
0.000000 0.282315 0.261612
0.061622 0.282315 0.261612
0.134883 0.282315 0.261612
0.217909 0.282315 0.261612
0.309397 0.282315 0.261612
0.408478 0.282315 0.261612
0.514494 0.282315 0.261612
0.626953 0.282315 0.261612
0.745619 0.282315 0.261612
0.843930 0.282315 0.261612
0.887015 0.282315 0.261612
0.920595 0.282315 0.261612
0.949381 0.282315 0.261612
0.973333 0.282315 0.261612
0.991134 0.282315 0.261612
1.000038 0.282315 0.261612
0.000000 0.317297 0.261612
0.061622 0.317297 0.261612
0.134883 0.317297 0.261612
0.217909 0.317297 0.261612
0.309397 0.317297 0.261612
0.408478 0.317297 0.261612
0.514494 0.317297 0.261612
0.626953 0.317297 0.261612
0.745619 0.317297 0.261612
0.843930 0.317297 0.261612
0.887015 0.317297 0.261612
0.920595 0.317297 0.261612
0.949381 0.317297 0.261612
0.973333 0.317297 0.261612
0.991134 0.317297 0.261612
1.000038 0.317297 0.261612
0.000000 0.348772 0.261612
0.061622 0.348772 0.261612
0.134883 0.348772 0.261612
0.217909 0.348772 0.261612
0.309397 0.348772 0.261612
0.408478 0.348772 0.261612
0.514494 0.348772 0.261612
0.626953 0.348772 0.261612
0.745619 0.348772 0.261612
0.843930 0.348772 0.261612
0.887015 0.348772 0.261612
0.920595 0.348772 0.261612
0.949381 0.348772 0.261612
0.973333 0.348772 0.261612
0.991134 0.348772 0.261612
1.000038 0.348772 0.261612
0.000000 0.376263 0.261612
0.061622 0.376263 0.261612
0.134883 0.376263 0.261612
0.217909 0.376263 0.261612
0.309397 0.376263 0.261612
0.408478 0.376263 0.261612
0.514494 0.376263 0.261612
0.626953 0.376263 0.261612
0.745619 0.376263 0.261612
0.843930 0.376263 0.261612
0.887015 0.376263 0.261612
0.920595 0.376263 0.261612
0.949381 0.376263 0.261612
0.973333 0.376263 0.261612
0.991134 0.376263 0.261612
1.000038 0.376263 0.261612
0.000000 0.399334 0.261612
0.061622 0.399334 0.261612
0.134883 0.399334 0.261612
0.217909 0.399334 0.261612
0.309397 0.399334 0.261612
0.408478 0.399334 0.261612
0.514494 0.399334 0.261612
0.626953 0.399334 0.261612
0.745619 0.399334 0.261612
0.843930 0.399334 0.261612
0.887015 0.399334 0.261612
0.920595 0.399334 0.261612
0.949381 0.399334 0.261612
0.973333 0.399334 0.261612
0.991134 0.399334 0.261612
1.000038 0.399334 0.261612
0.000000 0.417184 0.261612
0.061622 0.417184 0.261612
0.134883 0.417184 0.261612
0.217909 0.417184 0.261612
0.309397 0.417184 0.261612
0.408478 0.417184 0.261612
0.514494 0.417184 0.261612
0.626953 0.417184 0.261612
0.745619 0.417184 0.261612
0.843930 0.417184 0.261612
0.887015 0.417184 0.261612
0.920595 0.417184 0.261612
0.949381 0.417184 0.261612
0.973333 0.417184 0.261612
0.991134 0.417184 0.261612
1.000038 0.417184 0.261612
0.000000 0.428648 0.261612
0.061622 0.428648 0.261612
0.134883 0.428648 0.261612
0.217909 0.428648 0.261612
0.309397 0.428648 0.261612
0.408478 0.428648 0.261612
0.514494 0.428648 0.261612
0.626953 0.428648 0.261612
0.745619 0.428648 0.261612
0.843930 0.428648 0.261612
0.887015 0.428648 0.261612
0.920595 0.428648 0.261612
0.949381 0.428648 0.261612
0.973333 0.428648 0.261612
0.991134 0.428648 0.261612
1.000038 0.428648 0.261612
0.000000 0.431528 0.261612
0.061622 0.431528 0.261612
0.134883 0.431528 0.261612
0.217909 0.431528 0.261612
0.309397 0.431528 0.261612
0.408478 0.431528 0.261612
0.514494 0.431528 0.261612
0.626953 0.431528 0.261612
0.745619 0.431528 0.261612
0.843930 0.431528 0.261612
0.887015 0.431528 0.261612
0.920595 0.431528 0.261612
0.949381 0.431528 0.261612
0.973333 0.431528 0.261612
0.991134 0.431528 0.261612
1.000038 0.431528 0.261612
0.000000 0.421540 0.261612
0.061622 0.421540 0.261612
0.134883 0.421540 0.261612
0.217909 0.421540 0.261612
0.309397 0.421540 0.261612
0.408478 0.421540 0.261612
0.514494 0.421540 0.261612
0.626953 0.421540 0.261612
0.745619 0.421540 0.261612
0.843930 0.421540 0.261612
0.887015 0.421540 0.261612
0.920595 0.421540 0.261612
0.949381 0.421540 0.261612
0.973333 0.421540 0.261612
0.991134 0.421540 0.261612
1.000038 0.421540 0.261612
0.000000 0.996350 0.261612
0.061622 0.996350 0.261612
0.134883 0.996350 0.261612
0.217909 0.996350 0.261612
0.309397 0.996350 0.261612
0.408478 0.996350 0.261612
0.514494 0.996350 0.261612
0.626953 0.996350 0.261612
0.745619 0.996350 0.261612
0.843930 0.996350 0.261612
0.887015 0.996350 0.261612
0.920595 0.996350 0.261612
0.949381 0.996350 0.261612
0.973333 0.996350 0.261612
0.991134 0.996350 0.261612
1.000038 0.996350 0.261612
0.000000 0.000000 0.385018
0.061622 0.000000 0.385018
0.134883 0.000000 0.385018
0.217909 0.000000 0.385018
0.309397 0.000000 0.385018
0.408478 0.000000 0.385018
0.514494 0.000000 0.385018
0.626953 0.000000 0.385018
0.745619 0.000000 0.385018
0.843930 0.000000 0.385018
0.887015 0.000000 0.385018
0.920595 0.000000 0.385018
0.949381 0.000000 0.385018
0.973333 0.000000 0.385018
0.991134 0.000000 0.385018
1.000038 0.000000 0.385018
0.000000 0.054751 0.385018
0.061622 0.054751 0.385018
0.134883 0.054751 0.385018
0.217909 0.054751 0.385018
0.309397 0.054751 0.385018
0.408478 0.054751 0.385018
0.514494 0.054751 0.385018
0.626953 0.054751 0.385018
0.745619 0.054751 0.385018
0.843930 0.054751 0.385018
0.887015 0.054751 0.385018
0.920595 0.054751 0.385018
0.949381 0.054751 0.385018
0.973333 0.054751 0.385018
0.991134 0.054751 0.385018
1.000038 0.054751 0.385018
0.000000 0.106726 0.385018
0.061622 0.106726 0.385018
0.134883 0.106726 0.385018
0.217909 0.106726 0.385018
0.309397 0.106726 0.385018
0.408478 0.106726 0.385018
0.514494 0.106726 0.385018
0.626953 0.106726 0.385018
0.745619 0.106726 0.385018
0.843930 0.106726 0.385018
0.887015 0.106726 0.385018
0.920595 0.106726 0.385018
0.949381 0.106726 0.385018
0.973333 0.106726 0.385018
0.991134 0.106726 0.385018
1.000038 0.106726 0.385018
0.000000 0.155769 0.385018
0.061622 0.155769 0.385018
0.134883 0.155769 0.385018
0.217909 0.155769 0.385018
0.309397 0.155769 0.385018
0.408478 0.155769 0.385018
0.514494 0.155769 0.385018
0.626953 0.155769 0.385018
0.745619 0.155769 0.385018
0.843930 0.155769 0.385018
0.887015 0.155769 0.385018
0.920595 0.155769 0.385018
0.949381 0.155769 0.385018
0.973333 0.155769 0.385018
0.991134 0.155769 0.385018
1.000038 0.155769 0.385018
0.000000 0.201537 0.385018
0.061622 0.201537 0.385018
0.134883 0.201537 0.385018
0.217909 0.201537 0.385018
0.309397 0.201537 0.385018
0.408478 0.201537 0.385018
0.514494 0.201537 0.385018
0.626953 0.201537 0.385018
0.745619 0.201537 0.385018
0.843930 0.201537 0.385018
0.887015 0.201537 0.385018
0.920595 0.201537 0.385018
0.949381 0.201537 0.385018
0.973333 0.201537 0.385018
0.991134 0.201537 0.385018
1.000038 0.201537 0.385018
0.000000 0.243787 0.385018
0.061622 0.243787 0.385018
0.134883 0.243787 0.385018
0.217909 0.243787 0.385018
0.309397 0.243787 0.385018
0.408478 0.243787 0.385018
0.514494 0.243787 0.385018
0.626953 0.243787 0.385018
0.745619 0.243787 0.385018
0.843930 0.243787 0.385018
0.887015 0.243787 0.385018
0.920595 0.243787 0.385018
0.949381 0.243787 0.385018
0.973333 0.243787 0.385018
0.991134 0.243787 0.385018
1.000038 0.243787 0.385018
0.000000 0.282315 0.385018
0.061622 0.282315 0.385018
0.134883 0.282315 0.385018
0.217909 0.282315 0.385018
0.309397 0.282315 0.385018
0.408478 0.282315 0.385018
0.514494 0.282315 0.385018
0.626953 0.282315 0.385018
0.745619 0.282315 0.385018
0.843930 0.282315 0.385018
0.887015 0.282315 0.385018
0.920595 0.282315 0.385018
0.949381 0.282315 0.385018
0.973333 0.282315 0.385018
0.991134 0.282315 0.385018
1.000038 0.282315 0.385018
0.000000 0.317297 0.385018
0.061622 0.317297 0.385018
0.134883 0.317297 0.385018
0.217909 0.317297 0.385018
0.309397 0.317297 0.385018
0.408478 0.317297 0.385018
0.514494 0.317297 0.385018
0.626953 0.317297 0.385018
