res/luts/Coldcube.cube
LUT_3D_SIZE 16
0.000000 0.000000 0.000000
0.036412 0.000000 0.000000
0.078859 0.000000 0.000000
0.126464 0.000000 0.000000
0.178598 0.000000 0.000000
0.234839 0.000000 0.000000
0.294851 0.000000 0.000000
0.358519 0.000000 0.000000
0.425777 0.000000 0.000000
0.496210 0.000000 0.000000
0.569591 0.000000 0.000000
0.645711 0.000000 0.000000
0.724115 0.000000 0.000000
0.804919 0.000000 0.000000
0.886789 0.000000 0.000000
0.999897 0.000000 0.000000
0.000000 0.063648 0.000000
0.036412 0.063648 0.000000
0.078859 0.063648 0.000000
0.126464 0.063648 0.000000
0.178598 0.063648 0.000000
0.234839 0.063648 0.000000
0.294851 0.063648 0.000000
0.358519 0.063648 0.000000
0.425777 0.063648 0.000000
0.496210 0.063648 0.000000
0.569591 0.063648 0.000000
0.645711 0.063648 0.000000
0.724115 0.063648 0.000000
0.804919 0.063648 0.000000
0.886789 0.063648 0.000000
0.999897 0.063648 0.000000
0.000000 0.127768 0.000000
0.036412 0.127768 0.000000
0.078859 0.127768 0.000000
0.126464 0.127768 0.000000
0.178598 0.127768 0.000000
0.234839 0.127768 0.000000
0.294851 0.127768 0.000000
0.358519 0.127768 0.000000
0.425777 0.127768 0.000000
0.496210 0.127768 0.000000
0.569591 0.127768 0.000000
0.645711 0.127768 0.000000
0.724115 0.127768 0.000000
0.804919 0.127768 0.000000
0.886789 0.127768 0.000000
0.999897 0.127768 0.000000
0.000000 0.192380 0.000000
0.036412 0.192380 0.000000
0.078859 0.192380 0.000000
0.126464 0.192380 0.000000
0.178598 0.192380 0.000000
0.234839 0.192380 0.000000
0.294851 0.192380 0.000000
0.358519 0.192380 0.000000
0.425777 0.192380 0.000000
0.496210 0.192380 0.000000
0.569591 0.192380 0.000000
0.645711 0.192380 0.000000
0.724115 0.192380 0.000000
0.804919 0.192380 0.000000
0.886789 0.192380 0.000000
0.999897 0.192380 0.000000
0.000000 0.256278 0.000000
0.036412 0.256278 0.000000
0.078859 0.256278 0.000000
0.126464 0.256278 0.000000
0.178598 0.256278 0.000000
0.234839 0.256278 0.000000
0.294851 0.256278 0.000000
0.358519 0.256278 0.000000
0.425777 0.256278 0.000000
0.496210 0.256278 0.000000
0.569591 0.256278 0.000000
0.645711 0.256278 0.000000
0.724115 0.256278 0.000000
0.804919 0.256278 0.000000
0.886789 0.256278 0.000000
0.999897 0.256278 0.000000
0.000000 0.318286 0.000000
0.036412 0.318286 0.000000
0.078859 0.318286 0.000000
0.126464 0.318286 0.000000
0.178598 0.318286 0.000000
0.234839 0.318286 0.000000
0.294851 0.318286 0.000000
0.358519 0.318286 0.000000
0.425777 0.318286 0.000000
0.496210 0.318286 0.000000
0.569591 0.318286 0.000000
0.645711 0.318286 0.000000
0.724115 0.318286 0.000000
0.804919 0.318286 0.000000
0.886789 0.318286 0.000000
0.999897 0.318286 0.000000
0.000000 0.378877 0.000000
0.036412 0.378877 0.000000
0.078859 0.378877 0.000000
0.126464 0.378877 0.000000
0.178598 0.378877 0.000000
0.234839 0.378877 0.000000
0.294851 0.378877 0.000000
0.358519 0.378877 0.000000
0.425777 0.378877 0.000000
0.496210 0.378877 0.000000
0.569591 0.378877 0.000000
0.645711 0.378877 0.000000
0.724115 0.378877 0.000000
0.804919 0.378877 0.000000
0.886789 0.378877 0.000000
0.999897 0.378877 0.000000
0.000000 0.438778 0.000000
0.036412 0.438778 0.000000
0.078859 0.438778 0.000000
0.126464 0.438778 0.000000
0.178598 0.438778 0.000000
0.234839 0.438778 0.000000
0.294851 0.438778 0.000000
0.358519 0.438778 0.000000
0.425777 0.438778 0.000000
0.496210 0.438778 0.000000
0.569591 0.438778 0.000000
0.645711 0.438778 0.000000
0.724115 0.438778 0.000000
0.804919 0.438778 0.000000
0.886789 0.438778 0.000000
0.999897 0.438778 0.000000
0.000000 0.499180 0.000000
0.036412 0.499180 0.000000
0.078859 0.499180 0.000000
0.126464 0.499180 0.000000
0.178598 0.499180 0.000000
0.234839 0.499180 0.000000
0.294851 0.499180 0.000000
0.358519 0.499180 0.000000
0.425777 0.499180 0.000000
0.496210 0.499180 0.000000
0.569591 0.499180 0.000000
0.645711 0.499180 0.000000
0.724115 0.499180 0.000000
0.804919 0.499180 0.000000
0.886789 0.499180 0.000000
0.999897 0.499180 0.000000
0.000000 0.561121 0.000000
0.036412 0.561121 0.000000
0.078859 0.561121 0.000000
0.126464 0.561121 0.000000
0.178598 0.561121 0.000000
0.234839 0.561121 0.000000
0.294851 0.561121 0.000000
0.358519 0.561121 0.000000
0.425777 0.561121 0.000000
0.496210 0.561121 0.000000
0.569591 0.561121 0.000000
0.645711 0.561121 0.000000
0.724115 0.561121 0.000000
0.804919 0.561121 0.000000
0.886789 0.561121 0.000000
0.999897 0.561121 0.000000
0.000000 0.625646 0.000000
0.036412 0.625646 0.000000
0.078859 0.625646 0.000000
0.126464 0.625646 0.000000
0.178598 0.625646 0.000000
0.234839 0.625646 0.000000
0.294851 0.625646 0.000000
0.358519 0.625646 0.000000
0.425777 0.625646 0.000000
0.496210 0.625646 0.000000
0.569591 0.625646 0.000000
0.645711 0.625646 0.000000
0.724115 0.625646 0.000000
0.804919 0.625646 0.000000
0.886789 0.625646 0.000000
0.999897 0.625646 0.000000
0.000000 0.693874 0.000000
0.036412 0.693874 0.000000
0.078859 0.693874 0.000000
0.126464 0.693874 0.000000
0.178598 0.693874 0.000000
0.234839 0.693874 0.000000
0.294851 0.693874 0.000000
0.358519 0.693874 0.000000
0.425777 0.693874 0.000000
0.496210 0.693874 0.000000
0.569591 0.693874 0.000000
0.645711 0.693874 0.000000
0.724115 0.693874 0.000000
0.804919 0.693874 0.000000
0.886789 0.693874 0.000000
0.999897 0.693874 0.000000
0.000000 0.766159 0.000000
0.036412 0.766159 0.000000
0.078859 0.766159 0.000000
0.126464 0.766159 0.000000
0.178598 0.766159 0.000000
0.234839 0.766159 0.000000
0.294851 0.766159 0.000000
0.358519 0.766159 0.000000
0.425777 0.766159 0.000000
0.496210 0.766159 0.000000
0.569591 0.766159 0.000000
0.645711 0.766159 0.000000
0.724115 0.766159 0.000000
0.804919 0.766159 0.000000
0.886789 0.766159 0.000000
0.999897 0.766159 0.000000
0.000000 0.842766 0.000000
0.036412 0.842766 0.000000
0.078859 0.842766 0.000000
0.126464 0.842766 0.000000
0.178598 0.842766 0.000000
0.234839 0.842766 0.000000
0.294851 0.842766 0.000000
0.358519 0.842766 0.000000
0.425777 0.842766 0.000000
0.496210 0.842766 0.000000
0.569591 0.842766 0.000000
0.645711 0.842766 0.000000
0.724115 0.842766 0.000000
0.804919 0.842766 0.000000
0.886789 0.842766 0.000000
0.999897 0.842766 0.000000
0.000000 0.919389 0.000000
0.036412 0.919389 0.000000
0.078859 0.919389 0.000000
0.126464 0.919389 0.000000
0.178598 0.919389 0.000000
0.234839 0.919389 0.000000
0.294851 0.919389 0.000000
0.358519 0.919389 0.000000
0.425777 0.919389 0.000000
0.496210 0.919389 0.000000
0.569591 0.919389 0.000000
0.645711 0.919389 0.000000
0.724115 0.919389 0.000000
0.804919 0.919389 0.000000
0.886789 0.919389 0.000000
0.999897 0.919389 0.000000
0.000000 0.999946 0.000000
0.036412 0.999946 0.000000
0.078859 0.999946 0.000000
0.126464 0.999946 0.000000
0.178598 0.999946 0.000000
0.234839 0.999946 0.000000
0.294851 0.999946 0.000000
0.358519 0.999946 0.000000
0.425777 0.999946 0.000000
0.496210 0.999946 0.000000
0.569591 0.999946 0.000000
0.645711 0.999946 0.000000
0.724115 0.999946 0.000000
0.804919 0.999946 0.000000
0.886789 0.999946 0.000000
0.999897 0.999946 0.000000
0.000000 0.000000 0.122699
0.036412 0.000000 0.122699
0.078859 0.000000 0.122699
0.126464 0.000000 0.122699
0.178598 0.000000 0.122699
0.234839 0.000000 0.122699
0.294851 0.000000 0.122699
0.358519 0.000000 0.122699
0.425777 0.000000 0.122699
0.496210 0.000000 0.122699
0.569591 0.000000 0.122699
0.645711 0.000000 0.122699
0.724115 0.000000 0.122699
0.804919 0.000000 0.122699
0.886789 0.000000 0.122699
0.999897 0.000000 0.122699
0.000000 0.063648 0.122699
0.036412 0.063648 0.122699
0.078859 0.063648 0.122699
0.126464 0.063648 0.122699
0.178598 0.063648 0.122699
0.234839 0.063648 0.122699
0.294851 0.063648 0.122699
0.358519 0.063648 0.122699
0.425777 0.063648 0.122699
0.496210 0.063648 0.122699
0.569591 0.063648 0.122699
0.645711 0.063648 0.122699
0.724115 0.063648 0.122699
0.804919 0.063648 0.122699
0.886789 0.063648 0.122699
0.999897 0.063648 0.122699
0.000000 0.127768 0.122699
0.036412 0.127768 0.122699
0.078859 0.127768 0.122699
0.126464 0.127768 0.122699
0.178598 0.127768 0.122699
0.234839 0.127768 0.122699
0.294851 0.127768 0.122699
0.358519 0.127768 0.122699
0.425777 0.127768 0.122699
0.496210 0.127768 0.122699
0.569591 0.127768 0.122699
0.645711 0.127768 0.122699
0.724115 0.127768 0.122699
0.804919 0.127768 0.122699
0.886789 0.127768 0.122699
0.999897 0.127768 0.122699
0.000000 0.192380 0.122699
0.036412 0.192380 0.122699
0.078859 0.192380 0.122699
0.126464 0.192380 0.122699
0.178598 0.192380 0.122699
0.234839 0.192380 0.122699
0.294851 0.192380 0.122699
0.358519 0.192380 0.122699
0.425777 0.192380 0.122699
0.496210 0.192380 0.122699
0.569591 0.192380 0.122699
0.645711 0.192380 0.122699
0.724115 0.192380 0.122699
0.804919 0.192380 0.122699
0.886789 0.192380 0.122699
0.999897 0.192380 0.122699
0.000000 0.256278 0.122699
0.036412 0.256278 0.122699
0.078859 0.256278 0.122699
0.126464 0.256278 0.122699
0.178598 0.256278 0.122699
0.234839 0.256278 0.122699
0.294851 0.256278 0.122699
0.358519 0.256278 0.122699
0.425777 0.256278 0.122699
0.496210 0.256278 0.122699
0.569591 0.256278 0.122699
0.645711 0.256278 0.122699
0.724115 0.256278 0.122699
0.804919 0.256278 0.122699
0.886789 0.256278 0.122699
0.999897 0.256278 0.122699
0.000000 0.318286 0.122699
0.036412 0.318286 0.122699
0.078859 0.318286 0.122699
0.126464 0.318286 0.122699
0.178598 0.318286 0.122699
0.234839 0.318286 0.122699
0.294851 0.318286 0.122699
0.358519 0.318286 0.122699
0.425777 0.318286 0.122699
0.496210 0.318286 0.122699
0.569591 0.318286 0.122699
0.645711 0.318286 0.122699
0.724115 0.318286 0.122699
0.804919 0.318286 0.122699
0.886789 0.318286 0.122699
0.999897 0.318286 0.122699
0.000000 0.378877 0.122699
0.036412 0.378877 0.122699
0.078859 0.378877 0.122699
0.126464 0.378877 0.122699
0.178598 0.378877 0.122699
0.234839 0.378877 0.122699
0.294851 0.378877 0.122699
0.358519 0.378877 0.122699
0.425777 0.378877 0.122699
0.496210 0.378877 0.122699
0.569591 0.378877 0.122699
0.645711 0.378877 0.122699
0.724115 0.378877 0.122699
0.804919 0.378877 0.122699
0.886789 0.378877 0.122699
0.999897 0.378877 0.122699
0.000000 0.438778 0.122699
0.036412 0.438778 0.122699
0.078859 0.438778 0.122699
0.126464 0.438778 0.122699
0.178598 0.438778 0.122699
0.234839 0.438778 0.122699
0.294851 0.438778 0.122699
0.358519 0.438778 0.122699
0.425777 0.438778 0.122699
0.496210 0.438778 0.122699
0.569591 0.438778 0.122699
0.645711 0.438778 0.122699
0.724115 0.438778 0.122699
0.804919 0.438778 0.122699
0.886789 0.438778 0.122699
0.999897 0.438778 0.122699
0.000000 0.499180 0.122699
0.036412 0.499180 0.122699
0.078859 0.499180 0.122699
0.126464 0.499180 0.122699
0.178598 0.499180 0.122699
0.234839 0.499180 0.122699
0.294851 0.499180 0.122699
0.358519 0.499180 0.122699
0.425777 0.499180 0.122699
0.496210 0.499180 0.122699
0.569591 0.499180 0.122699
0.645711 0.499180 0.122699
0.724115 0.499180 0.122699
0.804919 0.499180 0.122699
0.886789 0.499180 0.122699
0.999897 0.499180 0.122699
0.000000 0.561121 0.122699
0.036412 0.561121 0.122699
0.078859 0.561121 0.122699
0.126464 0.561121 0.122699
0.178598 0.561121 0.122699
0.234839 0.561121 0.122699
0.294851 0.561121 0.122699
0.358519 0.561121 0.122699
0.425777 0.561121 0.122699
0.496210 0.561121 0.122699
0.569591 0.561121 0.122699
0.645711 0.561121 0.122699
0.724115 0.561121 0.122699
0.804919 0.561121 0.122699
0.886789 0.561121 0.122699
0.999897 0.561121 0.122699
0.000000 0.625646 0.122699
0.036412 0.625646 0.122699
0.078859 0.625646 0.122699
0.126464 0.625646 0.122699
0.178598 0.625646 0.122699
0.234839 0.625646 0.122699
0.294851 0.625646 0.122699
0.358519 0.625646 0.122699
0.425777 0.625646 0.122699
0.496210 0.625646 0.122699
0.569591 0.625646 0.122699
0.645711 0.625646 0.122699
0.724115 0.625646 0.122699
0.804919 0.625646 0.122699
0.886789 0.625646 0.122699
0.999897 0.625646 0.122699
0.000000 0.693874 0.122699
0.036412 0.693874 0.122699
0.078859 0.693874 0.122699
0.126464 0.693874 0.122699
0.178598 0.693874 0.122699
0.234839 0.693874 0.122699
0.294851 0.693874 0.122699
0.358519 0.693874 0.122699
0.425777 0.693874 0.122699
0.496210 0.693874 0.122699
0.569591 0.693874 0.122699
0.645711 0.693874 0.122699
0.724115 0.693874 0.122699
0.804919 0.693874 0.122699
0.886789 0.693874 0.122699
0.999897 0.693874 0.122699
0.000000 0.766159 0.122699
0.036412 0.766159 0.122699
0.078859 0.766159 0.122699
0.126464 0.766159 0.122699
0.178598 0.766159 0.122699
0.234839 0.766159 0.122699
0.294851 0.766159 0.122699
0.358519 0.766159 0.122699
0.425777 0.766159 0.122699
0.496210 0.766159 0.122699
0.569591 0.766159 0.122699
0.645711 0.766159 0.122699
0.724115 0.766159 0.122699
0.804919 0.766159 0.122699
0.886789 0.766159 0.122699
0.999897 0.766159 0.122699
0.000000 0.842766 0.122699
0.036412 0.842766 0.122699
0.078859 0.842766 0.122699
0.126464 0.842766 0.122699
0.178598 0.842766 0.122699
0.234839 0.842766 0.122699
0.294851 0.842766 0.122699
0.358519 0.842766 0.122699
0.425777 0.842766 0.122699
0.496210 0.842766 0.122699
0.569591 0.842766 0.122699
0.645711 0.842766 0.122699
0.724115 0.842766 0.122699
0.804919 0.842766 0.122699
0.886789 0.842766 0.122699
0.999897 0.842766 0.122699
0.000000 0.919389 0.122699
0.036412 0.919389 0.122699
0.078859 0.919389 0.122699
0.126464 0.919389 0.122699
0.178598 0.919389 0.122699
0.234839 0.919389 0.122699
0.294851 0.919389 0.122699
0.358519 0.919389 0.122699
0.425777 0.919389 0.122699
0.496210 0.919389 0.122699
0.569591 0.919389 0.122699
0.645711 0.919389 0.122699
0.724115 0.919389 0.122699
0.804919 0.919389 0.122699
0.886789 0.919389 0.122699
0.999897 0.919389 0.122699
0.000000 0.999946 0.122699
0.036412 0.999946 0.122699
0.078859 0.999946 0.122699
0.126464 0.999946 0.122699
0.178598 0.999946 0.122699
0.234839 0.999946 0.122699
0.294851 0.999946 0.122699
0.358519 0.999946 0.122699
0.425777 0.999946 0.122699
0.496210 0.999946 0.122699
0.569591 0.999946 0.122699
0.645711 0.999946 0.122699
0.724115 0.999946 0.122699
0.804919 0.999946 0.122699
0.886789 0.999946 0.122699
0.999897 0.999946 0.122699
0.000000 0.000000 0.239959
0.036412 0.000000 0.239959
0.078859 0.000000 0.239959
0.126464 0.000000 0.239959
0.178598 0.000000 0.239959
0.234839 0.000000 0.239959
0.294851 0.000000 0.239959
0.358519 0.000000 0.239959
0.425777 0.000000 0.239959
0.496210 0.000000 0.239959
0.569591 0.000000 0.239959
0.645711 0.000000 0.239959
0.724115 0.000000 0.239959
0.804919 0.000000 0.239959
0.886789 0.000000 0.239959
0.999897 0.000000 0.239959
0.000000 0.063648 0.239959
0.036412 0.063648 0.239959
0.078859 0.063648 0.239959
0.126464 0.063648 0.239959
0.178598 0.063648 0.239959
0.234839 0.063648 0.239959
0.294851 0.063648 0.239959
0.358519 0.063648 0.239959
0.425777 0.063648 0.239959
0.496210 0.063648 0.239959
0.569591 0.063648 0.239959
0.645711 0.063648 0.239959
0.724115 0.063648 0.239959
0.804919 0.063648 0.239959
0.886789 0.063648 0.239959
0.999897 0.063648 0.239959
0.000000 0.127768 0.239959
0.036412 0.127768 0.239959
0.078859 0.127768 0.239959
0.126464 0.127768 0.239959
0.178598 0.127768 0.239959
0.234839 0.127768 0.239959
0.294851 0.127768 0.239959
0.358519 0.127768 0.239959
0.425777 0.127768 0.239959
0.496210 0.127768 0.239959
0.569591 0.127768 0.239959
0.645711 0.127768 0.239959
0.724115 0.127768 0.239959
0.804919 0.127768 0.239959
0.886789 0.127768 0.239959
0.999897 0.127768 0.239959
0.000000 0.192380 0.239959
0.036412 0.192380 0.239959
0.078859 0.192380 0.239959
0.126464 0.192380 0.239959
0.178598 0.192380 0.239959
0.234839 0.192380 0.239959
0.294851 0.192380 0.239959
0.358519 0.192380 0.239959
0.425777 0.192380 0.239959
0.496210 0.192380 0.239959
0.569591 0.192380 0.239959
0.645711 0.192380 0.239959
0.724115 0.192380 0.239959
0.804919 0.192380 0.239959
0.886789 0.192380 0.239959
0.999897 0.192380 0.239959
0.000000 0.256278 0.239959
0.036412 0.256278 0.239959
0.078859 0.256278 0.239959
0.126464 0.256278 0.239959
0.178598 0.256278 0.239959
0.234839 0.256278 0.239959
0.294851 0.256278 0.239959
0.358519 0.256278 0.239959
0.425777 0.256278 0.239959
0.496210 0.256278 0.239959
0.569591 0.256278 0.239959
0.645711 0.256278 0.239959
0.724115 0.256278 0.239959
0.804919 0.256278 0.239959
0.886789 0.256278 0.239959
0.999897 0.256278 0.239959
0.000000 0.318286 0.239959
0.036412 0.318286 0.239959
0.078859 0.318286 0.239959
0.126464 0.318286 0.239959
0.178598 0.318286 0.239959
0.234839 0.318286 0.239959
0.294851 0.318286 0.239959
0.358519 0.318286 0.239959
0.425777 0.318286 0.239959
0.496210 0.318286 0.239959
0.569591 0.318286 0.239959
0.645711 0.318286 0.239959
0.724115 0.318286 0.239959
0.804919 0.318286 0.239959
0.886789 0.318286 0.239959
0.999897 0.318286 0.239959
0.000000 0.378877 0.239959
0.036412 0.378877 0.239959
0.078859 0.378877 0.239959
0.126464 0.378877 0.239959
0.178598 0.378877 0.239959
0.234839 0.378877 0.239959
0.294851 0.378877 0.239959
0.358519 0.378877 0.239959
0.425777 0.378877 0.239959
0.496210 0.378877 0.239959
0.569591 0.378877 0.239959
0.645711 0.378877 0.239959
0.724115 0.378877 0.239959
0.804919 0.378877 0.239959
0.886789 0.378877 0.239959
0.999897 0.378877 0.239959
0.000000 0.438778 0.239959
0.036412 0.438778 0.239959
0.078859 0.438778 0.239959
0.126464 0.438778 0.239959
0.178598 0.438778 0.239959
0.234839 0.438778 0.239959
0.294851 0.438778 0.239959
0.358519 0.438778 0.239959
0.425777 0.438778 0.239959
0.496210 0.438778 0.239959
0.569591 0.438778 0.239959
0.645711 0.438778 0.239959
0.724115 0.438778 0.239959
0.804919 0.438778 0.239959
0.886789 0.438778 0.239959
0.999897 0.438778 0.239959
0.000000 0.499180 0.239959
0.036412 0.499180 0.239959
0.078859 0.499180 0.239959
0.126464 0.499180 0.239959
0.178598 0.499180 0.239959
0.234839 0.499180 0.239959
0.294851 0.499180 0.239959
0.358519 0.499180 0.239959
0.425777 0.499180 0.239959
0.496210 0.499180 0.239959
0.569591 0.499180 0.239959
0.645711 0.499180 0.239959
0.724115 0.499180 0.239959
0.804919 0.499180 0.239959
0.886789 0.499180 0.239959
0.999897 0.499180 0.239959
0.000000 0.561121 0.239959
0.036412 0.561121 0.239959
0.078859 0.561121 0.239959
0.126464 0.561121 0.239959
0.178598 0.561121 0.239959
0.234839 0.561121 0.239959
0.294851 0.561121 0.239959
0.358519 0.561121 0.239959
0.425777 0.561121 0.239959
0.496210 0.561121 0.239959
0.569591 0.561121 0.239959
0.645711 0.561121 0.239959
0.724115 0.561121 0.239959
0.804919 0.561121 0.239959
0.886789 0.561121 0.239959
0.999897 0.561121 0.239959
0.000000 0.625646 0.239959
0.036412 0.625646 0.239959
0.078859 0.625646 0.239959
0.126464 0.625646 0.239959
0.178598 0.625646 0.239959
0.234839 0.625646 0.239959
0.294851 0.625646 0.239959
0.358519 0.625646 0.239959
0.425777 0.625646 0.239959
0.496210 0.625646 0.239959
0.569591 0.625646 0.239959
0.645711 0.625646 0.239959
0.724115 0.625646 0.239959
0.804919 0.625646 0.239959
0.886789 0.625646 0.239959
0.999897 0.625646 0.239959
0.000000 0.693874 0.239959
0.036412 0.693874 0.239959
0.078859 0.693874 0.239959
0.126464 0.693874 0.239959
0.178598 0.693874 0.239959
0.234839 0.693874 0.239959
0.294851 0.693874 0.239959
0.358519 0.693874 0.239959
0.425777 0.693874 0.239959
0.496210 0.693874 0.239959
0.569591 0.693874 0.239959
0.645711 0.693874 0.239959
0.724115 0.693874 0.239959
0.804919 0.693874 0.239959
0.886789 0.693874 0.239959
0.999897 0.693874 0.239959
0.000000 0.766159 0.239959
0.036412 0.766159 0.239959
0.078859 0.766159 0.239959
0.126464 0.766159 0.239959
0.178598 0.766159 0.239959
0.234839 0.766159 0.239959
0.294851 0.766159 0.239959
0.358519 0.766159 0.239959
0.425777 0.766159 0.239959
0.496210 0.766159 0.239959
0.569591 0.766159 0.239959
0.645711 0.766159 0.239959
0.724115 0.766159 0.239959
0.804919 0.766159 0.239959
0.886789 0.766159 0.239959
0.999897 0.766159 0.239959
0.000000 0.842766 0.239959
0.036412 0.842766 0.239959
0.078859 0.842766 0.239959
0.126464 0.842766 0.239959
0.178598 0.842766 0.239959
0.234839 0.842766 0.239959
0.294851 0.842766 0.239959
0.358519 0.842766 0.239959
0.425777 0.842766 0.239959
0.496210 0.842766 0.239959
0.569591 0.842766 0.239959
0.645711 0.842766 0.239959
0.724115 0.842766 0.239959
0.804919 0.842766 0.239959
0.886789 0.842766 0.239959
0.999897 0.842766 0.239959
0.000000 0.919389 0.239959
0.036412 0.919389 0.239959
0.078859 0.919389 0.239959
0.126464 0.919389 0.239959
0.178598 0.919389 0.239959
0.234839 0.919389 0.239959
0.294851 0.919389 0.239959
0.358519 0.919389 0.239959
0.425777 0.919389 0.239959
0.496210 0.919389 0.239959
0.569591 0.919389 0.239959
0.645711 0.919389 0.239959
0.724115 0.919389 0.239959
0.804919 0.919389 0.239959
0.886789 0.919389 0.239959
0.999897 0.919389 0.239959
0.000000 0.999946 0.239959
0.036412 0.999946 0.239959
0.078859 0.999946 0.239959
0.126464 0.999946 0.239959
0.178598 0.999946 0.239959
0.234839 0.999946 0.239959
0.294851 0.999946 0.239959
0.358519 0.999946 0.239959
0.425777 0.999946 0.239959
0.496210 0.999946 0.239959
0.569591 0.999946 0.239959
0.645711 0.999946 0.239959
0.724115 0.999946 0.239959
0.804919 0.999946 0.239959
0.886789 0.999946 0.239959
0.999897 0.999946 0.239959
0.000000 0.000000 0.351542
0.036412 0.000000 0.351542
0.078859 0.000000 0.351542
0.126464 0.000000 0.351542
0.178598 0.000000 0.351542
0.234839 0.000000 0.351542
0.294851 0.000000 0.351542
0.358519 0.000000 0.351542
0.425777 0.000000 0.351542
0.496210 0.000000 0.351542
0.569591 0.000000 0.351542
0.645711 0.000000 0.351542
0.724115 0.000000 0.351542
0.804919 0.000000 0.351542
0.886789 0.000000 0.351542
0.999897 0.000000 0.351542
0.000000 0.063648 0.351542
0.036412 0.063648 0.351542
0.078859 0.063648 0.351542
0.126464 0.063648 0.351542
0.178598 0.063648 0.351542
0.234839 0.063648 0.351542
0.294851 0.063648 0.351542
0.358519 0.063648 0.351542
0.425777 0.063648 0.351542
0.496210 0.063648 0.351542
0.569591 0.063648 0.351542
0.645711 0.063648 0.351542
0.724115 0.063648 0.351542
0.804919 0.063648 0.351542
0.886789 0.063648 0.351542
0.999897 0.063648 0.351542
0.000000 0.127768 0.351542
0.036412 0.127768 0.351542
0.078859 0.127768 0.351542
0.126464 0.127768 0.351542
0.178598 0.127768 0.351542
0.234839 0.127768 0.351542
0.294851 0.127768 0.351542
0.358519 0.127768 0.351542
0.425777 0.127768 0.351542
0.496210 0.127768 0.351542
0.569591 0.127768 0.351542
0.645711 0.127768 0.351542
0.724115 0.127768 0.351542
0.804919 0.127768 0.351542
0.886789 0.127768 0.351542
0.999897 0.127768 0.351542
0.000000 0.192380 0.351542
0.036412 0.192380 0.351542
0.078859 0.192380 0.351542
0.126464 0.192380 0.351542
0.178598 0.192380 0.351542
0.234839 0.192380 0.351542
0.294851 0.192380 0.351542
0.358519 0.192380 0.351542
0.425777 0.192380 0.351542
0.496210 0.192380 0.351542
0.569591 0.192380 0.351542
0.645711 0.192380 0.351542
0.724115 0.192380 0.351542
0.804919 0.192380 0.351542
0.886789 0.192380 0.351542
0.999897 0.192380 0.351542
0.000000 0.256278 0.351542
0.036412 0.256278 0.351542
0.078859 0.256278 0.351542
0.126464 0.256278 0.351542
0.178598 0.256278 0.351542
0.234839 0.256278 0.351542
0.294851 0.256278 0.351542
0.358519 0.256278 0.351542
0.425777 0.256278 0.351542
0.496210 0.256278 0.351542
0.569591 0.256278 0.351542
0.645711 0.256278 0.351542
0.724115 0.256278 0.351542
0.804919 0.256278 0.351542
0.886789 0.256278 0.351542
0.999897 0.256278 0.351542
0.000000 0.318286 0.351542
0.036412 0.318286 0.351542
0.078859 0.318286 0.351542
0.126464 0.318286 0.351542
0.178598 0.318286 0.351542
0.234839 0.318286 0.351542
0.294851 0.318286 0.351542
0.358519 0.318286 0.351542
0.425777 0.318286 0.351542
0.496210 0.318286 0.351542
0.569591 0.318286 0.351542
0.645711 0.318286 0.351542
0.724115 0.318286 0.351542
0.804919 0.318286 0.351542
0.886789 0.318286 0.351542
0.999897 0.318286 0.351542
0.000000 0.378877 0.351542
0.036412 0.378877 0.351542
0.078859 0.378877 0.351542
0.126464 0.378877 0.351542
0.178598 0.378877 0.351542
0.234839 0.378877 0.351542
0.294851 0.378877 0.351542
0.358519 0.378877 0.351542
0.425777 0.378877 0.351542
0.496210 0.378877 0.351542
0.569591 0.378877 0.351542
0.645711 0.378877 0.351542
0.724115 0.378877 0.351542
0.804919 0.378877 0.351542
0.886789 0.378877 0.351542
0.999897 0.378877 0.351542
0.000000 0.438778 0.351542
0.036412 0.438778 0.351542
0.078859 0.438778 0.351542
0.126464 0.438778 0.351542
0.178598 0.438778 0.351542
0.234839 0.438778 0.351542
0.294851 0.438778 0.351542
0.358519 0.438778 0.351542
