res/luts/Coldcube.cube
LUT_3D_SIZE 6
0.000000 0.000000 0.000000
0.126464 0.000000 0.000000
0.294851 0.000000 0.000000
0.496210 0.000000 0.000000
0.724115 0.000000 0.000000
0.999897 0.000000 0.000000
0.000000 0.192380 0.000000
0.126464 0.192380 0.000000
0.294851 0.192380 0.000000
0.496210 0.192380 0.000000
0.724115 0.192380 0.000000
0.999897 0.192380 0.000000
0.000000 0.378877 0.000000
0.126464 0.378877 0.000000
0.294851 0.378877 0.000000
0.496210 0.378877 0.000000
0.724115 0.378877 0.000000
0.999897 0.378877 0.000000
0.000000 0.561121 0.000000
0.126464 0.561121 0.000000
0.294851 0.561121 0.000000
0.496210 0.561121 0.000000
0.724115 0.561121 0.000000
0.999897 0.561121 0.000000
0.000000 0.766159 0.000000
0.126464 0.766159 0.000000
0.294851 0.766159 0.000000
0.496210 0.766159 0.000000
0.724115 0.766159 0.000000
0.999897 0.766159 0.000000
0.000000 0.999946 0.000000
0.126464 0.999946 0.000000
0.294851 0.999946 0.000000
0.496210 0.999946 0.000000
0.724115 0.999946 0.000000
0.999897 0.999946 0.000000
0.000000 0.000000 0.351542
0.126464 0.000000 0.351542
0.294851 0.000000 0.351542
0.496210 0.000000 0.351542
0.724115 0.000000 0.351542
0.999897 0.000000 0.351542
0.000000 0.192380 0.351542
0.126464 0.192380 0.351542
0.294851 0.192380 0.351542
0.496210 0.192380 0.351542
0.724115 0.192380 0.351542
0.999897 0.192380 0.351542
0.000000 0.378877 0.351542
0.126464 0.378877 0.351542
0.294851 0.378877 0.351542
0.496210 0.378877 0.351542
0.724115 0.378877 0.351542
0.999897 0.378877 0.351542
0.000000 0.561121 0.351542
0.126464 0.561121 0.351542
0.294851 0.561121 0.351542
0.496210 0.561121 0.351542
0.724115 0.561121 0.351542
0.999897 0.561121 0.351542
0.000000 0.766159 0.351542
0.126464 0.766159 0.351542
0.294851 0.766159 0.351542
0.496210 0.766159 0.351542
0.724115 0.766159 0.351542
0.999897 0.766159 0.351542
0.000000 0.999946 0.351542
0.126464 0.999946 0.351542
0.294851 0.999946 0.351542
0.496210 0.999946 0.351542
0.724115 0.999946 0.351542
0.999897 0.999946 0.351542
0.000000 0.000000 0.617415
0.126464 0.000000 0.617415
0.294851 0.000000 0.617415
0.496210 0.000000 0.617415
0.724115 0.000000 0.617415
0.999897 0.000000 0.617415
0.000000 0.192380 0.617415
0.126464 0.192380 0.617415
0.294851 0.192380 0.617415
0.496210 0.192380 0.617415
0.724115 0.192380 0.617415
0.999897 0.192380 0.617415
0.000000 0.378877 0.617415
0.126464 0.378877 0.617415
0.294851 0.378877 0.617415
0.496210 0.378877 0.617415
0.724115 0.378877 0.617415
0.999897 0.378877 0.617415
0.000000 0.561121 0.617415
0.126464 0.561121 0.617415
0.294851 0.561121 0.617415
0.496210 0.561121 0.617415
0.724115 0.561121 0.617415
0.999897 0.561121 0.617415
0.000000 0.766159 0.617415
0.126464 0.766159 0.617415
0.294851 0.766159 0.617415
0.496210 0.766159 0.617415
0.724115 0.766159 0.617415
0.999897 0.766159 0.617415
0.000000 0.999946 0.617415
0.126464 0.999946 0.617415
0.294851 0.999946 0.617415
0.496210 0.999946 0.617415
0.724115 0.999946 0.617415
0.999897 0.999946 0.617415
0.000000 0.000000 0.768754
0.126464 0.000000 0.768754
0.294851 0.000000 0.768754
0.496210 0.000000 0.768754
0.724115 0.000000 0.768754
0.999897 0.000000 0.768754
0.000000 0.192380 0.768754
0.126464 0.192380 0.768754
0.294851 0.192380 0.768754
0.496210 0.192380 0.768754
0.724115 0.192380 0.768754
0.999897 0.192380 0.768754
0.000000 0.378877 0.768754
0.126464 0.378877 0.768754
0.294851 0.378877 0.768754
0.496210 0.378877 0.768754
0.724115 0.378877 0.768754
0.999897 0.378877 0.768754
0.000000 0.561121 0.768754
0.126464 0.561121 0.768754
0.294851 0.561121 0.768754
0.496210 0.561121 0.768754
0.724115 0.561121 0.768754
0.999897 0.561121 0.768754
0.000000 0.766159 0.768754
0.126464 0.766159 0.768754
0.294851 0.766159 0.768754
0.496210 0.766159 0.768754
0.724115 0.766159 0.768754
0.999897 0.766159 0.768754
0.000000 0.999946 0.768754
0.126464 0.999946 0.768754
0.294851 0.999946 0.768754
0.496210 0.999946 0.768754
0.724115 0.999946 0.768754
0.999897 0.999946 0.768754
0.000000 0.000000 0.882352
0.126464 0.000000 0.882352
0.294851 0.000000 0.882352
0.496210 0.000000 0.882352
0.724115 0.000000 0.882352
0.999897 0.000000 0.882352
0.000000 0.192380 0.882352
0.126464 0.192380 0.882352
0.294851 0.192380 0.882352
0.496210 0.192380 0.882352
0.724115 0.192380 0.882352
0.999897 0.192380 0.882352
0.000000 0.378877 0.882352
0.126464 0.378877 0.882352
0.294851 0.378877 0.882352
0.496210 0.378877 0.882352
0.724115 0.378877 0.882352
0.999897 0.378877 0.882352
0.000000 0.561121 0.882352
0.126464 0.561121 0.882352
0.294851 0.561121 0.882352
0.496210 0.561121 0.882352
0.724115 0.561121 0.882352
0.999897 0.561121 0.882352
0.000000 0.766159 0.882352
0.126464 0.766159 0.882352
0.294851 0.766159 0.882352
0.496210 0.766159 0.882352
0.724115 0.766159 0.882352
0.999897 0.766159 0.882352
0.000000 0.999946 0.882352
0.126464 0.999946 0.882352
0.294851 0.999946 0.882352
0.496210 0.999946 0.882352
0.724115 0.999946 0.882352
0.999897 0.999946 0.882352
0.000000 0.000000 1.000000
0.126464 0.000000 1.000000
0.294851 0.000000 1.000000
0.496210 0.000000 1.000000
0.724115 0.000000 1.000000
0.999897 0.000000 1.000000
0.000000 0.192380 1.000000
0.126464 0.192380 1.000000
0.294851 0.192380 1.000000
0.496210 0.192380 1.000000
0.724115 0.192380 1.000000
0.999897 0.192380 1.000000
0.000000 0.378877 1.000000
0.126464 0.378877 1.000000
0.294851 0.378877 1.000000
0.496210 0.378877 1.000000
0.724115 0.378877 1.000000
0.999897 0.378877 1.000000
0.000000 0.561121 1.000000
0.126464 0.561121 1.000000
0.294851 0.561121 1.000000
0.496210 0.561121 1.000000
0.724115 0.561121 1.000000
0.999897 0.561121 1.000000
0.000000 0.766159 1.000000
0.126464 0.766159 1.000000
0.294851 0.766159 1.000000
0.496210 0.766159 1.000000
0.724115 0.766159 1.000000
0.999897 0.766159 1.000000
0.000000 0.999946 1.000000
0.126464 0.999946 1.000000
0.294851 0.999946 1.000000
0.496210 0.999946 1.000000
0.724115 0.999946 1.000000
0.999897 0.999946 1.000000
