res/luts/Warmcube.cube
LUT_3D_SIZE 6
0.000000 0.000000 0.000000
0.211084 0.000000 0.000000
0.431263 0.000000 0.000000
0.659599 0.000000 0.000000
0.896055 0.000000 0.000000
0.999922 0.000000 0.000000
0.000000 0.204796 0.000000
0.211084 0.204796 0.000000
0.431263 0.204796 0.000000
0.659599 0.204796 0.000000
0.896055 0.204796 0.000000
0.999922 0.204796 0.000000
0.000000 0.406072 0.000000
0.211084 0.406072 0.000000
0.431263 0.406072 0.000000
0.659599 0.406072 0.000000
0.896055 0.406072 0.000000
0.999922 0.406072 0.000000
0.000000 0.603016 0.000000
0.211084 0.603016 0.000000
0.431263 0.603016 0.000000
0.659599 0.603016 0.000000
0.896055 0.603016 0.000000
0.999922 0.603016 0.000000
0.000000 0.796026 0.000000
0.211084 0.796026 0.000000
0.431263 0.796026 0.000000
0.659599 0.796026 0.000000
0.896055 0.796026 0.000000
0.999922 0.796026 0.000000
0.000000 0.998926 0.000000
0.211084 0.998926 0.000000
0.431263 0.998926 0.000000
0.659599 0.998926 0.000000
0.896055 0.998926 0.000000
0.999922 0.998926 0.000000
0.000000 0.000000 0.051395
0.211084 0.000000 0.051395
0.431263 0.000000 0.051395
0.659599 0.000000 0.051395
0.896055 0.000000 0.051395
0.999922 0.000000 0.051395
0.000000 0.204796 0.051395
0.211084 0.204796 0.051395
0.431263 0.204796 0.051395
0.659599 0.204796 0.051395
0.896055 0.204796 0.051395
0.999922 0.204796 0.051395
0.000000 0.406072 0.051395
0.211084 0.406072 0.051395
0.431263 0.406072 0.051395
0.659599 0.406072 0.051395
0.896055 0.406072 0.051395
0.999922 0.406072 0.051395
0.000000 0.603016 0.051395
0.211084 0.603016 0.051395
0.431263 0.603016 0.051395
0.659599 0.603016 0.051395
0.896055 0.603016 0.051395
0.999922 0.603016 0.051395
0.000000 0.796026 0.051395
0.211084 0.796026 0.051395
0.431263 0.796026 0.051395
0.659599 0.796026 0.051395
0.896055 0.796026 0.051395
0.999922 0.796026 0.051395
0.000000 0.998926 0.051395
0.211084 0.998926 0.051395
0.431263 0.998926 0.051395
0.659599 0.998926 0.051395
0.896055 0.998926 0.051395
0.999922 0.998926 0.051395
0.000000 0.000000 0.137203
0.211084 0.000000 0.137203
0.431263 0.000000 0.137203
0.659599 0.000000 0.137203
0.896055 0.000000 0.137203
0.999922 0.000000 0.137203
0.000000 0.204796 0.137203
0.211084 0.204796 0.137203
0.431263 0.204796 0.137203
0.659599 0.204796 0.137203
0.896055 0.204796 0.137203
0.999922 0.204796 0.137203
0.000000 0.406072 0.137203
0.211084 0.406072 0.137203
0.431263 0.406072 0.137203
0.659599 0.406072 0.137203
0.896055 0.406072 0.137203
0.999922 0.406072 0.137203
0.000000 0.603016 0.137203
0.211084 0.603016 0.137203
0.431263 0.603016 0.137203
0.659599 0.603016 0.137203
0.896055 0.603016 0.137203
0.999922 0.603016 0.137203
0.000000 0.796026 0.137203
0.211084 0.796026 0.137203
0.431263 0.796026 0.137203
0.659599 0.796026 0.137203
0.896055 0.796026 0.137203
0.999922 0.796026 0.137203
0.000000 0.998926 0.137203
0.211084 0.998926 0.137203
0.431263 0.998926 0.137203
0.659599 0.998926 0.137203
0.896055 0.998926 0.137203
0.999922 0.998926 0.137203
0.000000 0.000000 0.243687
0.211084 0.000000 0.243687
0.431263 0.000000 0.243687
0.659599 0.000000 0.243687
0.896055 0.000000 0.243687
0.999922 0.000000 0.243687
0.000000 0.204796 0.243687
0.211084 0.204796 0.243687
0.431263 0.204796 0.243687
0.659599 0.204796 0.243687
0.896055 0.204796 0.243687
0.999922 0.204796 0.243687
0.000000 0.406072 0.243687
0.211084 0.406072 0.243687
0.431263 0.406072 0.243687
0.659599 0.406072 0.243687
0.896055 0.406072 0.243687
0.999922 0.406072 0.243687
0.000000 0.603016 0.243687
0.211084 0.603016 0.243687
0.431263 0.603016 0.243687
0.659599 0.603016 0.243687
0.896055 0.603016 0.243687
0.999922 0.603016 0.243687
0.000000 0.796026 0.243687
0.211084 0.796026 0.243687
0.431263 0.796026 0.243687
0.659599 0.796026 0.243687
0.896055 0.796026 0.243687
0.999922 0.796026 0.243687
0.000000 0.998926 0.243687
0.211084 0.998926 0.243687
0.431263 0.998926 0.243687
0.659599 0.998926 0.243687
0.896055 0.998926 0.243687
0.999922 0.998926 0.243687
0.000000 0.000000 0.366289
0.211084 0.000000 0.366289
0.431263 0.000000 0.366289
0.659599 0.000000 0.366289
0.896055 0.000000 0.366289
0.999922 0.000000 0.366289
0.000000 0.204796 0.366289
0.211084 0.204796 0.366289
0.431263 0.204796 0.366289
0.659599 0.204796 0.366289
0.896055 0.204796 0.366289
0.999922 0.204796 0.366289
0.000000 0.406072 0.366289
0.211084 0.406072 0.366289
0.431263 0.406072 0.366289
0.659599 0.406072 0.366289
0.896055 0.406072 0.366289
0.999922 0.406072 0.366289
0.000000 0.603016 0.366289
0.211084 0.603016 0.366289
0.431263 0.603016 0.366289
0.659599 0.603016 0.366289
0.896055 0.603016 0.366289
0.999922 0.603016 0.366289
0.000000 0.796026 0.366289
0.211084 0.796026 0.366289
0.431263 0.796026 0.366289
0.659599 0.796026 0.366289
0.896055 0.796026 0.366289
0.999922 0.796026 0.366289
0.000000 0.998926 0.366289
0.211084 0.998926 0.366289
0.431263 0.998926 0.366289
0.659599 0.998926 0.366289
0.896055 0.998926 0.366289
0.999922 0.998926 0.366289
0.000000 0.000000 0.996814
0.211084 0.000000 0.996814
0.431263 0.000000 0.996814
0.659599 0.000000 0.996814
0.896055 0.000000 0.996814
0.999922 0.000000 0.996814
0.000000 0.204796 0.996814
0.211084 0.204796 0.996814
0.431263 0.204796 0.996814
0.659599 0.204796 0.996814
0.896055 0.204796 0.996814
0.999922 0.204796 0.996814
0.000000 0.406072 0.996814
0.211084 0.406072 0.996814
0.431263 0.406072 0.996814
0.659599 0.406072 0.996814
0.896055 0.406072 0.996814
0.999922 0.406072 0.996814
0.000000 0.603016 0.996814
0.211084 0.603016 0.996814
0.431263 0.603016 0.996814
0.659599 0.603016 0.996814
0.896055 0.603016 0.996814
0.999922 0.603016 0.996814
0.000000 0.796026 0.996814
0.211084 0.796026 0.996814
0.431263 0.796026 0.996814
0.659599 0.796026 0.996814
0.896055 0.796026 0.996814
0.999922 0.796026 0.996814
0.000000 0.998926 0.996814
0.211084 0.998926 0.996814
0.431263 0.998926 0.996814
0.659599 0.998926 0.996814
0.896055 0.998926 0.996814
0.999922 0.998926 0.996814
