res/luts/Warmcube.cube
LUT_3D_SIZE 16
0.000000 0.000000 0.000000
0.069320 0.000000 0.000000
0.139686 0.000000 0.000000
0.211084 0.000000 0.000000
0.283480 0.000000 0.000000
0.356913 0.000000 0.000000
0.431263 0.000000 0.000000
0.506477 0.000000 0.000000
0.582581 0.000000 0.000000
0.659599 0.000000 0.000000
0.737494 0.000000 0.000000
0.816311 0.000000 0.000000
0.896055 0.000000 0.000000
0.969486 0.000000 0.000000
0.995663 0.000000 0.000000
0.999922 0.000000 0.000000
0.000000 0.068657 0.000000
0.069320 0.068657 0.000000
0.139686 0.068657 0.000000
0.211084 0.068657 0.000000
0.283480 0.068657 0.000000
0.356913 0.068657 0.000000
0.431263 0.068657 0.000000
0.506477 0.068657 0.000000
0.582581 0.068657 0.000000
0.659599 0.068657 0.000000
0.737494 0.068657 0.000000
0.816311 0.068657 0.000000
0.896055 0.068657 0.000000
0.969486 0.068657 0.000000
0.995663 0.068657 0.000000
0.999922 0.068657 0.000000
0.000000 0.136918 0.000000
0.069320 0.136918 0.000000
0.139686 0.136918 0.000000
0.211084 0.136918 0.000000
0.283480 0.136918 0.000000
0.356913 0.136918 0.000000
0.431263 0.136918 0.000000
0.506477 0.136918 0.000000
0.582581 0.136918 0.000000
0.659599 0.136918 0.000000
0.737494 0.136918 0.000000
0.816311 0.136918 0.000000
0.896055 0.136918 0.000000
0.969486 0.136918 0.000000
0.995663 0.136918 0.000000
0.999922 0.136918 0.000000
0.000000 0.204796 0.000000
0.069320 0.204796 0.000000
0.139686 0.204796 0.000000
0.211084 0.204796 0.000000
0.283480 0.204796 0.000000
0.356913 0.204796 0.000000
0.431263 0.204796 0.000000
0.506477 0.204796 0.000000
0.582581 0.204796 0.000000
0.659599 0.204796 0.000000
0.737494 0.204796 0.000000
0.816311 0.204796 0.000000
0.896055 0.204796 0.000000
0.969486 0.204796 0.000000
0.995663 0.204796 0.000000
0.999922 0.204796 0.000000
0.000000 0.272278 0.000000
0.069320 0.272278 0.000000
0.139686 0.272278 0.000000
0.211084 0.272278 0.000000
0.283480 0.272278 0.000000
0.356913 0.272278 0.000000
0.431263 0.272278 0.000000
0.506477 0.272278 0.000000
0.582581 0.272278 0.000000
0.659599 0.272278 0.000000
0.737494 0.272278 0.000000
0.816311 0.272278 0.000000
0.896055 0.272278 0.000000
0.969486 0.272278 0.000000
0.995663 0.272278 0.000000
0.999922 0.272278 0.000000
0.000000 0.339350 0.000000
0.069320 0.339350 0.000000
0.139686 0.339350 0.000000
0.211084 0.339350 0.000000
0.283480 0.339350 0.000000
0.356913 0.339350 0.000000
0.431263 0.339350 0.000000
0.506477 0.339350 0.000000
0.582581 0.339350 0.000000
0.659599 0.339350 0.000000
0.737494 0.339350 0.000000
0.816311 0.339350 0.000000
0.896055 0.339350 0.000000
0.969486 0.339350 0.000000
0.995663 0.339350 0.000000
0.999922 0.339350 0.000000
0.000000 0.406072 0.000000
0.069320 0.406072 0.000000
0.139686 0.406072 0.000000
0.211084 0.406072 0.000000
0.283480 0.406072 0.000000
0.356913 0.406072 0.000000
0.431263 0.406072 0.000000
0.506477 0.406072 0.000000
0.582581 0.406072 0.000000
0.659599 0.406072 0.000000
0.737494 0.406072 0.000000
0.816311 0.406072 0.000000
0.896055 0.406072 0.000000
0.969486 0.406072 0.000000
0.995663 0.406072 0.000000
0.999922 0.406072 0.000000
0.000000 0.472181 0.000000
0.069320 0.472181 0.000000
0.139686 0.472181 0.000000
0.211084 0.472181 0.000000
0.283480 0.472181 0.000000
0.356913 0.472181 0.000000
0.431263 0.472181 0.000000
0.506477 0.472181 0.000000
0.582581 0.472181 0.000000
0.659599 0.472181 0.000000
0.737494 0.472181 0.000000
0.816311 0.472181 0.000000
0.896055 0.472181 0.000000
0.969486 0.472181 0.000000
0.995663 0.472181 0.000000
0.999922 0.472181 0.000000
0.000000 0.537819 0.000000
0.069320 0.537819 0.000000
0.139686 0.537819 0.000000
0.211084 0.537819 0.000000
0.283480 0.537819 0.000000
0.356913 0.537819 0.000000
0.431263 0.537819 0.000000
0.506477 0.537819 0.000000
0.582581 0.537819 0.000000
0.659599 0.537819 0.000000
0.737494 0.537819 0.000000
0.816311 0.537819 0.000000
0.896055 0.537819 0.000000
0.969486 0.537819 0.000000
0.995663 0.537819 0.000000
0.999922 0.537819 0.000000
0.000000 0.603016 0.000000
0.069320 0.603016 0.000000
0.139686 0.603016 0.000000
0.211084 0.603016 0.000000
0.283480 0.603016 0.000000
0.356913 0.603016 0.000000
0.431263 0.603016 0.000000
0.506477 0.603016 0.000000
0.582581 0.603016 0.000000
0.659599 0.603016 0.000000
0.737494 0.603016 0.000000
0.816311 0.603016 0.000000
0.896055 0.603016 0.000000
0.969486 0.603016 0.000000
0.995663 0.603016 0.000000
0.999922 0.603016 0.000000
0.000000 0.667708 0.000000
0.069320 0.667708 0.000000
0.139686 0.667708 0.000000
0.211084 0.667708 0.000000
0.283480 0.667708 0.000000
0.356913 0.667708 0.000000
0.431263 0.667708 0.000000
0.506477 0.667708 0.000000
0.582581 0.667708 0.000000
0.659599 0.667708 0.000000
0.737494 0.667708 0.000000
0.816311 0.667708 0.000000
0.896055 0.667708 0.000000
0.969486 0.667708 0.000000
0.995663 0.667708 0.000000
0.999922 0.667708 0.000000
0.000000 0.732054 0.000000
0.069320 0.732054 0.000000
0.139686 0.732054 0.000000
0.211084 0.732054 0.000000
0.283480 0.732054 0.000000
0.356913 0.732054 0.000000
0.431263 0.732054 0.000000
0.506477 0.732054 0.000000
0.582581 0.732054 0.000000
0.659599 0.732054 0.000000
0.737494 0.732054 0.000000
0.816311 0.732054 0.000000
0.896055 0.732054 0.000000
0.969486 0.732054 0.000000
0.995663 0.732054 0.000000
0.999922 0.732054 0.000000
0.000000 0.796026 0.000000
0.069320 0.796026 0.000000
0.139686 0.796026 0.000000
0.211084 0.796026 0.000000
0.283480 0.796026 0.000000
0.356913 0.796026 0.000000
0.431263 0.796026 0.000000
0.506477 0.796026 0.000000
0.582581 0.796026 0.000000
0.659599 0.796026 0.000000
0.737494 0.796026 0.000000
0.816311 0.796026 0.000000
0.896055 0.796026 0.000000
0.969486 0.796026 0.000000
0.995663 0.796026 0.000000
0.999922 0.796026 0.000000
0.000000 0.853933 0.000000
0.069320 0.853933 0.000000
0.139686 0.853933 0.000000
0.211084 0.853933 0.000000
0.283480 0.853933 0.000000
0.356913 0.853933 0.000000
0.431263 0.853933 0.000000
0.506477 0.853933 0.000000
0.582581 0.853933 0.000000
0.659599 0.853933 0.000000
0.737494 0.853933 0.000000
0.816311 0.853933 0.000000
0.896055 0.853933 0.000000
0.969486 0.853933 0.000000
0.995663 0.853933 0.000000
0.999922 0.853933 0.000000
0.000000 0.873358 0.000000
0.069320 0.873358 0.000000
0.139686 0.873358 0.000000
0.211084 0.873358 0.000000
0.283480 0.873358 0.000000
0.356913 0.873358 0.000000
0.431263 0.873358 0.000000
0.506477 0.873358 0.000000
0.582581 0.873358 0.000000
0.659599 0.873358 0.000000
0.737494 0.873358 0.000000
0.816311 0.873358 0.000000
0.896055 0.873358 0.000000
0.969486 0.873358 0.000000
0.995663 0.873358 0.000000
0.999922 0.873358 0.000000
0.000000 0.998926 0.000000
0.069320 0.998926 0.000000
0.139686 0.998926 0.000000
0.211084 0.998926 0.000000
0.283480 0.998926 0.000000
0.356913 0.998926 0.000000
0.431263 0.998926 0.000000
0.506477 0.998926 0.000000
0.582581 0.998926 0.000000
0.659599 0.998926 0.000000
0.737494 0.998926 0.000000
0.816311 0.998926 0.000000
0.896055 0.998926 0.000000
0.969486 0.998926 0.000000
0.995663 0.998926 0.000000
0.999922 0.998926 0.000000
0.000000 0.000000 0.010840
0.069320 0.000000 0.010840
0.139686 0.000000 0.010840
0.211084 0.000000 0.010840
0.283480 0.000000 0.010840
0.356913 0.000000 0.010840
0.431263 0.000000 0.010840
0.506477 0.000000 0.010840
0.582581 0.000000 0.010840
0.659599 0.000000 0.010840
0.737494 0.000000 0.010840
0.816311 0.000000 0.010840
0.896055 0.000000 0.010840
0.969486 0.000000 0.010840
0.995663 0.000000 0.010840
0.999922 0.000000 0.010840
0.000000 0.068657 0.010840
0.069320 0.068657 0.010840
0.139686 0.068657 0.010840
0.211084 0.068657 0.010840
0.283480 0.068657 0.010840
0.356913 0.068657 0.010840
0.431263 0.068657 0.010840
0.506477 0.068657 0.010840
0.582581 0.068657 0.010840
0.659599 0.068657 0.010840
0.737494 0.068657 0.010840
0.816311 0.068657 0.010840
0.896055 0.068657 0.010840
0.969486 0.068657 0.010840
0.995663 0.068657 0.010840
0.999922 0.068657 0.010840
0.000000 0.136918 0.010840
0.069320 0.136918 0.010840
0.139686 0.136918 0.010840
0.211084 0.136918 0.010840
0.283480 0.136918 0.010840
0.356913 0.136918 0.010840
0.431263 0.136918 0.010840
0.506477 0.136918 0.010840
0.582581 0.136918 0.010840
0.659599 0.136918 0.010840
0.737494 0.136918 0.010840
0.816311 0.136918 0.010840
0.896055 0.136918 0.010840
0.969486 0.136918 0.010840
0.995663 0.136918 0.010840
0.999922 0.136918 0.010840
0.000000 0.204796 0.010840
0.069320 0.204796 0.010840
0.139686 0.204796 0.010840
0.211084 0.204796 0.010840
0.283480 0.204796 0.010840
0.356913 0.204796 0.010840
0.431263 0.204796 0.010840
0.506477 0.204796 0.010840
0.582581 0.204796 0.010840
0.659599 0.204796 0.010840
0.737494 0.204796 0.010840
0.816311 0.204796 0.010840
0.896055 0.204796 0.010840
0.969486 0.204796 0.010840
0.995663 0.204796 0.010840
0.999922 0.204796 0.010840
0.000000 0.272278 0.010840
0.069320 0.272278 0.010840
0.139686 0.272278 0.010840
0.211084 0.272278 0.010840
0.283480 0.272278 0.010840
0.356913 0.272278 0.010840
0.431263 0.272278 0.010840
0.506477 0.272278 0.010840
0.582581 0.272278 0.010840
0.659599 0.272278 0.010840
0.737494 0.272278 0.010840
0.816311 0.272278 0.010840
0.896055 0.272278 0.010840
0.969486 0.272278 0.010840
0.995663 0.272278 0.010840
0.999922 0.272278 0.010840
0.000000 0.339350 0.010840
0.069320 0.339350 0.010840
0.139686 0.339350 0.010840
0.211084 0.339350 0.010840
0.283480 0.339350 0.010840
0.356913 0.339350 0.010840
0.431263 0.339350 0.010840
0.506477 0.339350 0.010840
0.582581 0.339350 0.010840
0.659599 0.339350 0.010840
0.737494 0.339350 0.010840
0.816311 0.339350 0.010840
0.896055 0.339350 0.010840
0.969486 0.339350 0.010840
0.995663 0.339350 0.010840
0.999922 0.339350 0.010840
0.000000 0.406072 0.010840
0.069320 0.406072 0.010840
0.139686 0.406072 0.010840
0.211084 0.406072 0.010840
0.283480 0.406072 0.010840
0.356913 0.406072 0.010840
0.431263 0.406072 0.010840
0.506477 0.406072 0.010840
0.582581 0.406072 0.010840
0.659599 0.406072 0.010840
0.737494 0.406072 0.010840
0.816311 0.406072 0.010840
0.896055 0.406072 0.010840
0.969486 0.406072 0.010840
0.995663 0.406072 0.010840
0.999922 0.406072 0.010840
0.000000 0.472181 0.010840
0.069320 0.472181 0.010840
0.139686 0.472181 0.010840
0.211084 0.472181 0.010840
0.283480 0.472181 0.010840
0.356913 0.472181 0.010840
0.431263 0.472181 0.010840
0.506477 0.472181 0.010840
0.582581 0.472181 0.010840
0.659599 0.472181 0.010840
0.737494 0.472181 0.010840
0.816311 0.472181 0.010840
0.896055 0.472181 0.010840
0.969486 0.472181 0.010840
0.995663 0.472181 0.010840
0.999922 0.472181 0.010840
0.000000 0.537819 0.010840
0.069320 0.537819 0.010840
0.139686 0.537819 0.010840
0.211084 0.537819 0.010840
0.283480 0.537819 0.010840
0.356913 0.537819 0.010840
0.431263 0.537819 0.010840
0.506477 0.537819 0.010840
0.582581 0.537819 0.010840
0.659599 0.537819 0.010840
0.737494 0.537819 0.010840
0.816311 0.537819 0.010840
0.896055 0.537819 0.010840
0.969486 0.537819 0.010840
0.995663 0.537819 0.010840
0.999922 0.537819 0.010840
0.000000 0.603016 0.010840
0.069320 0.603016 0.010840
0.139686 0.603016 0.010840
0.211084 0.603016 0.010840
0.283480 0.603016 0.010840
0.356913 0.603016 0.010840
0.431263 0.603016 0.010840
0.506477 0.603016 0.010840
0.582581 0.603016 0.010840
0.659599 0.603016 0.010840
0.737494 0.603016 0.010840
0.816311 0.603016 0.010840
0.896055 0.603016 0.010840
0.969486 0.603016 0.010840
0.995663 0.603016 0.010840
0.999922 0.603016 0.010840
0.000000 0.667708 0.010840
0.069320 0.667708 0.010840
0.139686 0.667708 0.010840
0.211084 0.667708 0.010840
0.283480 0.667708 0.010840
0.356913 0.667708 0.010840
0.431263 0.667708 0.010840
0.506477 0.667708 0.010840
0.582581 0.667708 0.010840
0.659599 0.667708 0.010840
0.737494 0.667708 0.010840
0.816311 0.667708 0.010840
0.896055 0.667708 0.010840
0.969486 0.667708 0.010840
0.995663 0.667708 0.010840
0.999922 0.667708 0.010840
0.000000 0.732054 0.010840
0.069320 0.732054 0.010840
0.139686 0.732054 0.010840
0.211084 0.732054 0.010840
0.283480 0.732054 0.010840
0.356913 0.732054 0.010840
0.431263 0.732054 0.010840
0.506477 0.732054 0.010840
0.582581 0.732054 0.010840
0.659599 0.732054 0.010840
0.737494 0.732054 0.010840
0.816311 0.732054 0.010840
0.896055 0.732054 0.010840
0.969486 0.732054 0.010840
0.995663 0.732054 0.010840
0.999922 0.732054 0.010840
0.000000 0.796026 0.010840
0.069320 0.796026 0.010840
0.139686 0.796026 0.010840
0.211084 0.796026 0.010840
0.283480 0.796026 0.010840
0.356913 0.796026 0.010840
0.431263 0.796026 0.010840
0.506477 0.796026 0.010840
0.582581 0.796026 0.010840
0.659599 0.796026 0.010840
0.737494 0.796026 0.010840
0.816311 0.796026 0.010840
0.896055 0.796026 0.010840
0.969486 0.796026 0.010840
0.995663 0.796026 0.010840
0.999922 0.796026 0.010840
0.000000 0.853933 0.010840
0.069320 0.853933 0.010840
0.139686 0.853933 0.010840
0.211084 0.853933 0.010840
0.283480 0.853933 0.010840
0.356913 0.853933 0.010840
0.431263 0.853933 0.010840
0.506477 0.853933 0.010840
0.582581 0.853933 0.010840
0.659599 0.853933 0.010840
0.737494 0.853933 0.010840
0.816311 0.853933 0.010840
0.896055 0.853933 0.010840
0.969486 0.853933 0.010840
0.995663 0.853933 0.010840
0.999922 0.853933 0.010840
0.000000 0.873358 0.010840
0.069320 0.873358 0.010840
0.139686 0.873358 0.010840
0.211084 0.873358 0.010840
0.283480 0.873358 0.010840
0.356913 0.873358 0.010840
0.431263 0.873358 0.010840
0.506477 0.873358 0.010840
0.582581 0.873358 0.010840
0.659599 0.873358 0.010840
0.737494 0.873358 0.010840
0.816311 0.873358 0.010840
0.896055 0.873358 0.010840
0.969486 0.873358 0.010840
0.995663 0.873358 0.010840
0.999922 0.873358 0.010840
0.000000 0.998926 0.010840
0.069320 0.998926 0.010840
0.139686 0.998926 0.010840
0.211084 0.998926 0.010840
0.283480 0.998926 0.010840
0.356913 0.998926 0.010840
0.431263 0.998926 0.010840
0.506477 0.998926 0.010840
0.582581 0.998926 0.010840
0.659599 0.998926 0.010840
0.737494 0.998926 0.010840
0.816311 0.998926 0.010840
0.896055 0.998926 0.010840
0.969486 0.998926 0.010840
0.995663 0.998926 0.010840
0.999922 0.998926 0.010840
0.000000 0.000000 0.028936
0.069320 0.000000 0.028936
0.139686 0.000000 0.028936
0.211084 0.000000 0.028936
0.283480 0.000000 0.028936
0.356913 0.000000 0.028936
0.431263 0.000000 0.028936
0.506477 0.000000 0.028936
0.582581 0.000000 0.028936
0.659599 0.000000 0.028936
0.737494 0.000000 0.028936
0.816311 0.000000 0.028936
0.896055 0.000000 0.028936
0.969486 0.000000 0.028936
0.995663 0.000000 0.028936
0.999922 0.000000 0.028936
0.000000 0.068657 0.028936
0.069320 0.068657 0.028936
0.139686 0.068657 0.028936
0.211084 0.068657 0.028936
0.283480 0.068657 0.028936
0.356913 0.068657 0.028936
0.431263 0.068657 0.028936
0.506477 0.068657 0.028936
0.582581 0.068657 0.028936
0.659599 0.068657 0.028936
0.737494 0.068657 0.028936
0.816311 0.068657 0.028936
0.896055 0.068657 0.028936
0.969486 0.068657 0.028936
0.995663 0.068657 0.028936
0.999922 0.068657 0.028936
0.000000 0.136918 0.028936
0.069320 0.136918 0.028936
0.139686 0.136918 0.028936
0.211084 0.136918 0.028936
0.283480 0.136918 0.028936
0.356913 0.136918 0.028936
0.431263 0.136918 0.028936
0.506477 0.136918 0.028936
0.582581 0.136918 0.028936
0.659599 0.136918 0.028936
0.737494 0.136918 0.028936
0.816311 0.136918 0.028936
0.896055 0.136918 0.028936
0.969486 0.136918 0.028936
0.995663 0.136918 0.028936
0.999922 0.136918 0.028936
0.000000 0.204796 0.028936
0.069320 0.204796 0.028936
0.139686 0.204796 0.028936
0.211084 0.204796 0.028936
0.283480 0.204796 0.028936
0.356913 0.204796 0.028936
0.431263 0.204796 0.028936
0.506477 0.204796 0.028936
0.582581 0.204796 0.028936
0.659599 0.204796 0.028936
0.737494 0.204796 0.028936
0.816311 0.204796 0.028936
0.896055 0.204796 0.028936
0.969486 0.204796 0.028936
0.995663 0.204796 0.028936
0.999922 0.204796 0.028936
0.000000 0.272278 0.028936
0.069320 0.272278 0.028936
0.139686 0.272278 0.028936
0.211084 0.272278 0.028936
0.283480 0.272278 0.028936
0.356913 0.272278 0.028936
0.431263 0.272278 0.028936
0.506477 0.272278 0.028936
0.582581 0.272278 0.028936
0.659599 0.272278 0.028936
0.737494 0.272278 0.028936
0.816311 0.272278 0.028936
0.896055 0.272278 0.028936
0.969486 0.272278 0.028936
0.995663 0.272278 0.028936
0.999922 0.272278 0.028936
0.000000 0.339350 0.028936
0.069320 0.339350 0.028936
0.139686 0.339350 0.028936
0.211084 0.339350 0.028936
0.283480 0.339350 0.028936
0.356913 0.339350 0.028936
0.431263 0.339350 0.028936
0.506477 0.339350 0.028936
0.582581 0.339350 0.028936
0.659599 0.339350 0.028936
0.737494 0.339350 0.028936
0.816311 0.339350 0.028936
0.896055 0.339350 0.028936
0.969486 0.339350 0.028936
0.995663 0.339350 0.028936
0.999922 0.339350 0.028936
0.000000 0.406072 0.028936
0.069320 0.406072 0.028936
0.139686 0.406072 0.028936
0.211084 0.406072 0.028936
0.283480 0.406072 0.028936
0.356913 0.406072 0.028936
0.431263 0.406072 0.028936
0.506477 0.406072 0.028936
0.582581 0.406072 0.028936
0.659599 0.406072 0.028936
0.737494 0.406072 0.028936
0.816311 0.406072 0.028936
0.896055 0.406072 0.028936
0.969486 0.406072 0.028936
0.995663 0.406072 0.028936
0.999922 0.406072 0.028936
0.000000 0.472181 0.028936
0.069320 0.472181 0.028936
0.139686 0.472181 0.028936
0.211084 0.472181 0.028936
0.283480 0.472181 0.028936
0.356913 0.472181 0.028936
0.431263 0.472181 0.028936
0.506477 0.472181 0.028936
0.582581 0.472181 0.028936
0.659599 0.472181 0.028936
0.737494 0.472181 0.028936
0.816311 0.472181 0.028936
0.896055 0.472181 0.028936
0.969486 0.472181 0.028936
0.995663 0.472181 0.028936
0.999922 0.472181 0.028936
0.000000 0.537819 0.028936
0.069320 0.537819 0.028936
0.139686 0.537819 0.028936
0.211084 0.537819 0.028936
0.283480 0.537819 0.028936
0.356913 0.537819 0.028936
0.431263 0.537819 0.028936
0.506477 0.537819 0.028936
0.582581 0.537819 0.028936
0.659599 0.537819 0.028936
0.737494 0.537819 0.028936
0.816311 0.537819 0.028936
0.896055 0.537819 0.028936
0.969486 0.537819 0.028936
0.995663 0.537819 0.028936
0.999922 0.537819 0.028936
0.000000 0.603016 0.028936
0.069320 0.603016 0.028936
0.139686 0.603016 0.028936
0.211084 0.603016 0.028936
0.283480 0.603016 0.028936
0.356913 0.603016 0.028936
0.431263 0.603016 0.028936
0.506477 0.603016 0.028936
0.582581 0.603016 0.028936
0.659599 0.603016 0.028936
0.737494 0.603016 0.028936
0.816311 0.603016 0.028936
0.896055 0.603016 0.028936
0.969486 0.603016 0.028936
0.995663 0.603016 0.028936
0.999922 0.603016 0.028936
0.000000 0.667708 0.028936
0.069320 0.667708 0.028936
0.139686 0.667708 0.028936
0.211084 0.667708 0.028936
0.283480 0.667708 0.028936
0.356913 0.667708 0.028936
0.431263 0.667708 0.028936
0.506477 0.667708 0.028936
0.582581 0.667708 0.028936
0.659599 0.667708 0.028936
0.737494 0.667708 0.028936
0.816311 0.667708 0.028936
0.896055 0.667708 0.028936
0.969486 0.667708 0.028936
0.995663 0.667708 0.028936
0.999922 0.667708 0.028936
0.000000 0.732054 0.028936
0.069320 0.732054 0.028936
0.139686 0.732054 0.028936
0.211084 0.732054 0.028936
0.283480 0.732054 0.028936
0.356913 0.732054 0.028936
0.431263 0.732054 0.028936
0.506477 0.732054 0.028936
0.582581 0.732054 0.028936
0.659599 0.732054 0.028936
0.737494 0.732054 0.028936
0.816311 0.732054 0.028936
0.896055 0.732054 0.028936
0.969486 0.732054 0.028936
0.995663 0.732054 0.028936
0.999922 0.732054 0.028936
0.000000 0.796026 0.028936
0.069320 0.796026 0.028936
0.139686 0.796026 0.028936
0.211084 0.796026 0.028936
0.283480 0.796026 0.028936
0.356913 0.796026 0.028936
0.431263 0.796026 0.028936
0.506477 0.796026 0.028936
0.582581 0.796026 0.028936
0.659599 0.796026 0.028936
0.737494 0.796026 0.028936
0.816311 0.796026 0.028936
0.896055 0.796026 0.028936
0.969486 0.796026 0.028936
0.995663 0.796026 0.028936
0.999922 0.796026 0.028936
0.000000 0.853933 0.028936
0.069320 0.853933 0.028936
0.139686 0.853933 0.028936
0.211084 0.853933 0.028936
0.283480 0.853933 0.028936
0.356913 0.853933 0.028936
0.431263 0.853933 0.028936
0.506477 0.853933 0.028936
0.582581 0.853933 0.028936
0.659599 0.853933 0.028936
0.737494 0.853933 0.028936
0.816311 0.853933 0.028936
0.896055 0.853933 0.028936
0.969486 0.853933 0.028936
0.995663 0.853933 0.028936
0.999922 0.853933 0.028936
0.000000 0.873358 0.028936
0.069320 0.873358 0.028936
0.139686 0.873358 0.028936
0.211084 0.873358 0.028936
0.283480 0.873358 0.028936
0.356913 0.873358 0.028936
0.431263 0.873358 0.028936
0.506477 0.873358 0.028936
0.582581 0.873358 0.028936
0.659599 0.873358 0.028936
0.737494 0.873358 0.028936
0.816311 0.873358 0.028936
0.896055 0.873358 0.028936
0.969486 0.873358 0.028936
0.995663 0.873358 0.028936
0.999922 0.873358 0.028936
0.000000 0.998926 0.028936
0.069320 0.998926 0.028936
0.139686 0.998926 0.028936
0.211084 0.998926 0.028936
0.283480 0.998926 0.028936
0.356913 0.998926 0.028936
0.431263 0.998926 0.028936
0.506477 0.998926 0.028936
0.582581 0.998926 0.028936
0.659599 0.998926 0.028936
0.737494 0.998926 0.028936
0.816311 0.998926 0.028936
0.896055 0.998926 0.028936
0.969486 0.998926 0.028936
0.995663 0.998926 0.028936
0.999922 0.998926 0.028936
0.000000 0.000000 0.051395
0.069320 0.000000 0.051395
0.139686 0.000000 0.051395
0.211084 0.000000 0.051395
0.283480 0.000000 0.051395
0.356913 0.000000 0.051395
0.431263 0.000000 0.051395
0.506477 0.000000 0.051395
0.582581 0.000000 0.051395
0.659599 0.000000 0.051395
0.737494 0.000000 0.051395
0.816311 0.000000 0.051395
0.896055 0.000000 0.051395
0.969486 0.000000 0.051395
0.995663 0.000000 0.051395
0.999922 0.000000 0.051395
0.000000 0.068657 0.051395
0.069320 0.068657 0.051395
0.139686 0.068657 0.051395
0.211084 0.068657 0.051395
0.283480 0.068657 0.051395
0.356913 0.068657 0.051395
0.431263 0.068657 0.051395
0.506477 0.068657 0.051395
0.582581 0.068657 0.051395
0.659599 0.068657 0.051395
0.737494 0.068657 0.051395
0.816311 0.068657 0.051395
0.896055 0.068657 0.051395
0.969486 0.068657 0.051395
0.995663 0.068657 0.051395
0.999922 0.068657 0.051395
0.000000 0.136918 0.051395
0.069320 0.136918 0.051395
0.139686 0.136918 0.051395
0.211084 0.136918 0.051395
0.283480 0.136918 0.051395
0.356913 0.136918 0.051395
0.431263 0.136918 0.051395
0.506477 0.136918 0.051395
0.582581 0.136918 0.051395
0.659599 0.136918 0.051395
0.737494 0.136918 0.051395
0.816311 0.136918 0.051395
0.896055 0.136918 0.051395
0.969486 0.136918 0.051395
0.995663 0.136918 0.051395
0.999922 0.136918 0.051395
0.000000 0.204796 0.051395
0.069320 0.204796 0.051395
0.139686 0.204796 0.051395
0.211084 0.204796 0.051395
0.283480 0.204796 0.051395
0.356913 0.204796 0.051395
0.431263 0.204796 0.051395
0.506477 0.204796 0.051395
0.582581 0.204796 0.051395
0.659599 0.204796 0.051395
0.737494 0.204796 0.051395
0.816311 0.204796 0.051395
0.896055 0.204796 0.051395
0.969486 0.204796 0.051395
0.995663 0.204796 0.051395
0.999922 0.204796 0.051395
0.000000 0.272278 0.051395
0.069320 0.272278 0.051395
0.139686 0.272278 0.051395
0.211084 0.272278 0.051395
0.283480 0.272278 0.051395
0.356913 0.272278 0.051395
0.431263 0.272278 0.051395
0.506477 0.272278 0.051395
0.582581 0.272278 0.051395
0.659599 0.272278 0.051395
0.737494 0.272278 0.051395
0.816311 0.272278 0.051395
0.896055 0.272278 0.051395
0.969486 0.272278 0.051395
0.995663 0.272278 0.051395
0.999922 0.272278 0.051395
0.000000 0.339350 0.051395
0.069320 0.339350 0.051395
0.139686 0.339350 0.051395
0.211084 0.339350 0.051395
0.283480 0.339350 0.051395
0.356913 0.339350 0.051395
0.431263 0.339350 0.051395
0.506477 0.339350 0.051395
0.582581 0.339350 0.051395
0.659599 0.339350 0.051395
0.737494 0.339350 0.051395
0.816311 0.339350 0.051395
0.896055 0.339350 0.051395
0.969486 0.339350 0.051395
0.995663 0.339350 0.051395
0.999922 0.339350 0.051395
0.000000 0.406072 0.051395
0.069320 0.406072 0.051395
0.139686 0.406072 0.051395
0.211084 0.406072 0.051395
0.283480 0.406072 0.051395
0.356913 0.406072 0.051395
0.431263 0.406072 0.051395
0.506477 0.406072 0.051395
0.582581 0.406072 0.051395
0.659599 0.406072 0.051395
0.737494 0.406072 0.051395
0.816311 0.406072 0.051395
0.896055 0.406072 0.051395
0.969486 0.406072 0.051395
0.995663 0.406072 0.051395
0.999922 0.406072 0.051395
0.000000 0.472181 0.051395
0.069320 0.472181 0.051395
0.139686 0.472181 0.051395
0.211084 0.472181 0.051395
0.283480 0.472181 0.051395
0.356913 0.472181 0.051395
0.431263 0.472181 0.051395
0.506477 0.472181 0.051395
